(G-CODE GENERATED BY FLATCAM v8.994 - www.flatcam.org - Version Date: 2020/11/7)

(Name: pico_w_rover-B_Cu.gbr_edit_3_iso_combined_cnc)
(Type: G-code from Geometry)
(Units: MM)

(Created on Monday, 26 September 2022 at 12:21)

(This preprocessor is the default preprocessor used by FlatCAM.)
(It is made to work with MACH3 compatible motion controllers.)

(TOOL DIAMETER: 0.25 mm)
(Feedrate_XY: 120.0 mm/min)
(Feedrate_Z: 60.0 mm/min)
(Feedrate rapids 1500.0 mm/min)

(Z_Cut: -0.05 mm)
(Z_Move: 2.0 mm)
(Z Start: None mm)
(Z End: 15.0 mm)
(X,Y End: None mm)
(Steps per circle: 64)
(Preprocessor Geometry: default)

(X range:   -0.3250 ...   90.7480  mm)
(Y range:   -0.3250 ...   70.4280  mm)

(Spindle Speed: 1000.0 RPM)
G21
G90
G94

G01 F120.00
G00 Z15.0000

M03 S1000.0
G01 F120.00
G00 X-0.1215 Y0.0965
G01 F60.00
G01 Z-0.0500
G01 F120.00
G01 X-0.0999 Y0.0227
G01 X-0.0947 Y0.0082
G01 X-0.0892 Y-0.0030
G01 X-0.0825 Y-0.0136
G01 X-0.0749 Y-0.0235
G01 X-0.0641 Y-0.0346
G01 X-0.0034 Y-0.0871
G01 X0.0095 Y-0.0959
G01 X0.0205 Y-0.1018
G01 X0.0350 Y-0.1075
G01 X0.0471 Y-0.1108
G01 X0.1027 Y-0.1228
G01 X0.1126 Y-0.1243
G01 X0.1260 Y-0.1250
G01 X90.2970 Y-0.1250
G01 X90.3118 Y-0.1241
G01 X90.3265 Y-0.1215
G01 X90.4032 Y-0.0991
G01 X90.4148 Y-0.0947
G01 X90.4232 Y-0.0907
G01 X90.4340 Y-0.0843
G01 X90.4417 Y-0.0788
G01 X90.4489 Y-0.0728
G01 X90.4576 Y-0.0641
G01 X90.5061 Y-0.0082
G01 X90.5138 Y0.0016
G01 X90.5220 Y0.0149
G01 X90.5284 Y0.0291
G01 X90.5331 Y0.0440
G01 X90.5458 Y0.1027
G01 X90.5473 Y0.1126
G01 X90.5480 Y0.1260
G01 X90.5480 Y69.9770
G01 X90.5471 Y69.9918
G01 X90.5445 Y70.0065
G01 X90.5221 Y70.0832
G01 X90.5177 Y70.0948
G01 X90.5137 Y70.1032
G01 X90.5073 Y70.1140
G01 X90.5018 Y70.1217
G01 X90.4958 Y70.1289
G01 X90.4871 Y70.1376
G01 X90.4312 Y70.1861
G01 X90.4214 Y70.1938
G01 X90.4081 Y70.2020
G01 X90.3939 Y70.2084
G01 X90.3790 Y70.2131
G01 X90.3203 Y70.2258
G01 X90.3104 Y70.2273
G01 X90.2970 Y70.2280
G01 X0.1260 Y70.2280
G01 X0.1112 Y70.2271
G01 X0.0965 Y70.2245
G01 X0.0198 Y70.2021
G01 X0.0082 Y70.1977
G01 X-0.0002 Y70.1937
G01 X-0.0084 Y70.1890
G01 X-0.0187 Y70.1818
G01 X-0.0259 Y70.1758
G01 X-0.0346 Y70.1671
G01 X-0.0831 Y70.1112
G01 X-0.0925 Y70.0988
G01 X-0.0990 Y70.0881
G01 X-0.1054 Y70.0739
G01 X-0.1101 Y70.0590
G01 X-0.1228 Y70.0003
G01 X-0.1243 Y69.9904
G01 X-0.1250 Y69.9770
G01 X-0.1250 Y0.1260
G01 X-0.1241 Y0.1112
G01 X-0.1215 Y0.0965
G00 Z2.0000
G00 X-0.3158 Y0.0494
G01 F60.00
G01 Z-0.0500
G01 F120.00
G01 X-0.3118 Y0.0344
G01 X-0.2918 Y-0.0337
G01 X-0.2844 Y-0.0561
G01 X-0.2783 Y-0.0712
G01 X-0.2714 Y-0.0860
G01 X-0.2639 Y-0.1004
G01 X-0.2556 Y-0.1144
G01 X-0.2466 Y-0.1280
G01 X-0.2370 Y-0.1411
G01 X-0.2267 Y-0.1537
G01 X-0.2158 Y-0.1658
G01 X-0.1986 Y-0.1826
G01 X-0.1392 Y-0.2342
G01 X-0.1202 Y-0.2495
G01 X-0.1069 Y-0.2588
G01 X-0.0932 Y-0.2675
G01 X-0.0790 Y-0.2755
G01 X-0.0645 Y-0.2828
G01 X-0.0496 Y-0.2893
G01 X-0.0345 Y-0.2951
G01 X-0.0190 Y-0.3001
G01 X-0.0033 Y-0.3044
G01 X0.0654 Y-0.3193
G01 X0.0913 Y-0.3231
G01 X0.1086 Y-0.3245
G01 X0.1260 Y-0.3250
G01 X90.2970 Y-0.3250
G01 X90.3202 Y-0.3242
G01 X90.3356 Y-0.3227
G01 X90.3509 Y-0.3205
G01 X90.3661 Y-0.3176
G01 X90.3886 Y-0.3118
G01 X90.4641 Y-0.2896
G01 X90.4791 Y-0.2844
G01 X90.4942 Y-0.2783
G01 X90.5162 Y-0.2677
G01 X90.5374 Y-0.2556
G01 X90.5510 Y-0.2466
G01 X90.5641 Y-0.2370
G01 X90.5828 Y-0.2213
G01 X90.6003 Y-0.2043
G01 X90.6107 Y-0.1928
G01 X90.6625 Y-0.1330
G01 X90.6725 Y-0.1202
G01 X90.6818 Y-0.1069
G01 X90.6905 Y-0.0932
G01 X90.7022 Y-0.0718
G01 X90.7123 Y-0.0496
G01 X90.7181 Y-0.0345
G01 X90.7231 Y-0.0190
G01 X90.7274 Y-0.0033
G01 X90.7406 Y0.0569
G01 X90.7438 Y0.0740
G01 X90.7470 Y0.0999
G01 X90.7480 Y0.1260
G01 X90.7480 Y69.9770
G01 X90.7472 Y70.0002
G01 X90.7457 Y70.0156
G01 X90.7435 Y70.0309
G01 X90.7406 Y70.0461
G01 X90.7348 Y70.0686
G01 X90.7126 Y70.1441
G01 X90.7074 Y70.1591
G01 X90.7013 Y70.1742
G01 X90.6907 Y70.1962
G01 X90.6828 Y70.2104
G01 X90.6742 Y70.2242
G01 X90.6600 Y70.2441
G01 X90.6443 Y70.2628
G01 X90.6273 Y70.2803
G01 X90.6158 Y70.2907
G01 X90.5560 Y70.3425
G01 X90.5432 Y70.3525
G01 X90.5299 Y70.3618
G01 X90.5091 Y70.3746
G01 X90.4948 Y70.3822
G01 X90.4801 Y70.3891
G01 X90.4575 Y70.3981
G01 X90.4420 Y70.4031
G01 X90.4263 Y70.4074
G01 X90.3661 Y70.4206
G01 X90.3490 Y70.4238
G01 X90.3231 Y70.4270
G01 X90.2970 Y70.4280
G01 X0.1260 Y70.4280
G01 X0.1105 Y70.4276
G01 X0.0951 Y70.4265
G01 X0.0797 Y70.4247
G01 X0.0569 Y70.4206
G01 X0.0344 Y70.4148
G01 X-0.0411 Y70.3926
G01 X-0.0561 Y70.3874
G01 X-0.0712 Y70.3813
G01 X-0.0932 Y70.3707
G01 X-0.1144 Y70.3586
G01 X-0.1280 Y70.3496
G01 X-0.1411 Y70.3400
G01 X-0.1598 Y70.3243
G01 X-0.1773 Y70.3073
G01 X-0.1877 Y70.2958
G01 X-0.2395 Y70.2360
G01 X-0.2542 Y70.2166
G01 X-0.2633 Y70.2031
G01 X-0.2716 Y70.1892
G01 X-0.2792 Y70.1748
G01 X-0.2861 Y70.1601
G01 X-0.2923 Y70.1451
G01 X-0.2977 Y70.1298
G01 X-0.3044 Y70.1063
G01 X-0.3176 Y70.0461
G01 X-0.3208 Y70.0290
G01 X-0.3240 Y70.0031
G01 X-0.3250 Y69.9770
G01 X-0.3250 Y0.1260
G01 X-0.3242 Y0.1028
G01 X-0.3227 Y0.0874
G01 X-0.3191 Y0.0645
G01 X-0.3158 Y0.0494
G00 Z2.0000
G00 X1.9647 Y5.4251
G01 F60.00
G01 Z-0.0500
G01 F120.00
G01 X1.9940 Y5.0442
G01 X2.0599 Y4.6701
G01 X2.1621 Y4.3042
G01 X2.2995 Y3.9500
G01 X2.4707 Y3.6110
G01 X2.6743 Y3.2902
G01 X2.9082 Y2.9909
G01 X3.1701 Y2.7158
G01 X3.4577 Y2.4676
G01 X3.7681 Y2.2486
G01 X4.0984 Y2.0610
G01 X4.4454 Y1.9065
G01 X4.8059 Y1.7865
G01 X5.1763 Y1.7024
G01 X5.5532 Y1.6548
G01 X5.9329 Y1.6442
G01 X6.3119 Y1.6707
G01 X6.6864 Y1.7340
G01 X7.0530 Y1.8336
G01 X7.4081 Y1.9685
G01 X7.7484 Y2.1374
G01 X8.0705 Y2.3387
G01 X8.3715 Y2.5705
G01 X8.6484 Y2.8305
G01 X8.8986 Y3.1164
G01 X9.1198 Y3.4252
G01 X9.3097 Y3.7542
G01 X9.4666 Y4.1002
G01 X9.5891 Y4.4598
G01 X9.6758 Y4.8296
G01 X9.7260 Y5.2061
G01 X9.7393 Y5.5858
G01 X9.7155 Y5.9649
G01 X9.6547 Y6.3399
G01 X9.5577 Y6.7072
G01 X9.4253 Y7.0632
G01 X9.2587 Y7.4046
G01 X9.0597 Y7.7282
G01 X8.8300 Y8.0308
G01 X8.5719 Y8.3095
G01 X8.2879 Y8.5617
G01 X7.9805 Y8.7850
G01 X7.6529 Y8.9772
G01 X7.3080 Y9.1366
G01 X6.9493 Y9.2615
G01 X6.5801 Y9.3508
G01 X6.2039 Y9.4037
G01 X5.8244 Y9.4196
G01 X5.4451 Y9.3984
G01 X5.0697 Y9.3403
G01 X4.7017 Y9.2458
G01 X4.3448 Y9.1159
G01 X4.0022 Y8.9517
G01 X3.6773 Y8.7550
G01 X3.3731 Y8.5274
G01 X3.0926 Y8.2712
G01 X2.8384 Y7.9889
G01 X2.6130 Y7.6832
G01 X2.4184 Y7.3569
G01 X2.2567 Y7.0132
G01 X2.1293 Y6.6553
G01 X2.0374 Y6.2867
G01 X1.9819 Y5.9109
G01 X1.9632 Y5.5293
G01 X1.9647 Y5.4251
G00 Z2.0000
G00 X2.1646 Y5.4342
G01 F60.00
G01 Z-0.0500
G01 F120.00
G01 X2.1926 Y5.0693
G01 X2.2552 Y4.7144
G01 X2.3521 Y4.3674
G01 X2.4824 Y4.0315
G01 X2.6448 Y3.7099
G01 X2.8379 Y3.4057
G01 X3.0597 Y3.1217
G01 X3.3082 Y2.8608
G01 X3.5810 Y2.6254
G01 X3.8754 Y2.4177
G01 X4.1887 Y2.2397
G01 X4.5178 Y2.0931
G01 X4.8597 Y1.9794
G01 X5.2083 Y1.9002
G01 X5.5686 Y1.8544
G01 X5.9287 Y1.8444
G01 X6.2882 Y1.8695
G01 X6.6434 Y1.9296
G01 X6.9911 Y2.0241
G01 X7.3280 Y2.1520
G01 X7.6507 Y2.3122
G01 X7.9538 Y2.5016
G01 X8.2418 Y2.7231
G01 X8.5044 Y2.9696
G01 X8.7417 Y3.2407
G01 X8.9497 Y3.5313
G01 X9.1317 Y3.8459
G01 X9.2805 Y4.1739
G01 X9.3966 Y4.5150
G01 X9.4789 Y4.8658
G01 X9.5265 Y5.2229
G01 X9.5391 Y5.5830
G01 X9.5166 Y5.9396
G01 X9.4588 Y6.2984
G01 X9.3668 Y6.6466
G01 X9.2423 Y6.9816
G01 X9.0832 Y7.3083
G01 X8.8945 Y7.6151
G01 X8.6766 Y7.9021
G01 X8.4338 Y8.1643
G01 X8.1624 Y8.4057
G01 X7.8709 Y8.6174
G01 X7.5601 Y8.7998
G01 X7.2330 Y8.9509
G01 X6.8928 Y9.0694
G01 X6.5426 Y9.1541
G01 X6.1884 Y9.2039
G01 X5.8287 Y9.2192
G01 X5.4659 Y9.1992
G01 X5.1099 Y9.1441
G01 X4.7609 Y9.0545
G01 X4.4224 Y8.9313
G01 X4.0974 Y8.7756
G01 X3.7892 Y8.5889
G01 X3.5007 Y8.3731
G01 X3.2346 Y8.1302
G01 X2.9935 Y7.8624
G01 X2.7797 Y7.5724
G01 X2.5967 Y7.2654
G01 X2.4418 Y6.9368
G01 X2.3210 Y6.5974
G01 X2.2338 Y6.2478
G01 X2.1812 Y5.8914
G01 X2.1633 Y5.5258
G01 X2.1646 Y5.4342
G00 Z2.0000
G00 X6.7700 Y16.1795
G01 F60.00
G01 Z-0.0500
G01 F120.00
G01 X6.7729 Y16.1242
G01 X6.7732 Y16.0992
G01 X6.7755 Y16.0744
G01 X6.7784 Y16.0191
G01 X6.7807 Y16.0091
G01 X6.7847 Y15.9872
G01 X6.7858 Y15.9795
G01 X6.8034 Y15.9252
G01 X6.8200 Y15.8638
G01 X6.8243 Y15.8545
G01 X6.8328 Y15.8340
G01 X6.8354 Y15.8267
G01 X6.8671 Y15.7714
G01 X6.8930 Y15.7206
G01 X6.8977 Y15.7145
G01 X6.9103 Y15.6962
G01 X6.9158 Y15.6875
G01 X6.9528 Y15.6463
G01 X6.9688 Y15.6271
G01 X6.9862 Y15.6092
G01 X7.0233 Y15.5680
G01 X7.0314 Y15.5617
G01 X7.0483 Y15.5473
G01 X7.0536 Y15.5422
G01 X15.1211 Y7.4747
G01 X15.1262 Y7.4693
G01 X15.1406 Y7.4525
G01 X15.1470 Y7.4444
G01 X15.1882 Y7.4073
G01 X15.2060 Y7.3898
G01 X15.2252 Y7.3739
G01 X15.2664 Y7.3368
G01 X15.2751 Y7.3314
G01 X15.2934 Y7.3188
G01 X15.2996 Y7.3141
G01 X15.3504 Y7.2881
G01 X15.4056 Y7.2565
G01 X15.4152 Y7.2530
G01 X15.4357 Y7.2444
G01 X15.4428 Y7.2411
G01 X15.5042 Y7.2244
G01 X15.5584 Y7.2068
G01 X15.5661 Y7.2058
G01 X15.5880 Y7.2018
G01 X15.5980 Y7.1995
G01 X15.6533 Y7.1966
G01 X15.6782 Y7.1942
G01 X15.7032 Y7.1940
G01 X15.7585 Y7.1911
G01 X15.7687 Y7.1923
G01 X15.7908 Y7.1940
G01 X15.7982 Y7.1942
G01 X54.2096 Y7.1942
G01 X54.2169 Y7.1940
G01 X54.2391 Y7.1923
G01 X54.2493 Y7.1911
G01 X54.3046 Y7.1940
G01 X54.3296 Y7.1942
G01 X54.3544 Y7.1966
G01 X54.4097 Y7.1995
G01 X54.4197 Y7.2018
G01 X54.4416 Y7.2058
G01 X54.4493 Y7.2068
G01 X54.5036 Y7.2244
G01 X54.5650 Y7.2411
G01 X54.5720 Y7.2444
G01 X54.5925 Y7.2530
G01 X54.6022 Y7.2565
G01 X54.6574 Y7.2881
G01 X54.7082 Y7.3141
G01 X54.7144 Y7.3188
G01 X54.7327 Y7.3314
G01 X54.7413 Y7.3368
G01 X54.7825 Y7.3739
G01 X54.8017 Y7.3898
G01 X54.8196 Y7.4073
G01 X54.8608 Y7.4444
G01 X54.8671 Y7.4525
G01 X54.8816 Y7.4693
G01 X54.8866 Y7.4747
G01 X57.1476 Y9.7356
G01 X57.1552 Y9.7423
G01 X57.1810 Y9.7629
G01 X57.1913 Y9.7696
G01 X57.2050 Y9.7766
G01 X57.2194 Y9.7818
G01 X57.2875 Y9.8018
G01 X57.2961 Y9.8040
G01 X57.3049 Y9.8056
G01 X57.3138 Y9.8065
G01 X57.3227 Y9.8068
G01 X72.8375 Y9.8068
G01 X72.8449 Y9.8066
G01 X72.8671 Y9.8049
G01 X72.8772 Y9.8037
G01 X72.9326 Y9.8066
G01 X72.9575 Y9.8068
G01 X72.9824 Y9.8092
G01 X73.0377 Y9.8121
G01 X73.0477 Y9.8144
G01 X73.0696 Y9.8184
G01 X73.0773 Y9.8194
G01 X73.1316 Y9.8370
G01 X73.1930 Y9.8537
G01 X73.2000 Y9.8570
G01 X73.2205 Y9.8655
G01 X73.2301 Y9.8691
G01 X73.2853 Y9.9007
G01 X73.3361 Y9.9266
G01 X73.3423 Y9.9314
G01 X73.3606 Y9.9440
G01 X73.3693 Y9.9494
G01 X73.4105 Y9.9865
G01 X73.4297 Y10.0024
G01 X73.4476 Y10.0199
G01 X73.4887 Y10.0570
G01 X73.4951 Y10.0650
G01 X73.5095 Y10.0819
G01 X73.5146 Y10.0873
G01 X75.7659 Y12.3386
G01 X75.7713 Y12.3437
G01 X75.7882 Y12.3581
G01 X75.7962 Y12.3645
G01 X75.8333 Y12.4056
G01 X75.8508 Y12.4235
G01 X75.8667 Y12.4427
G01 X75.9038 Y12.4839
G01 X75.9092 Y12.4926
G01 X75.9218 Y12.5109
G01 X75.9266 Y12.5171
G01 X75.9525 Y12.5678
G01 X75.9841 Y12.6231
G01 X75.9876 Y12.6327
G01 X75.9962 Y12.6532
G01 X75.9995 Y12.6602
G01 X76.0162 Y12.7216
G01 X76.0338 Y12.7759
G01 X76.0348 Y12.7836
G01 X76.0388 Y12.8055
G01 X76.0411 Y12.8155
G01 X76.0440 Y12.8708
G01 X76.0464 Y12.8956
G01 X76.0466 Y12.9206
G01 X76.0495 Y12.9760
G01 X76.0483 Y12.9861
G01 X76.0466 Y13.0083
G01 X76.0464 Y13.0156
G01 X76.0464 Y19.4359
G01 X76.0466 Y19.4433
G01 X76.0483 Y19.4655
G01 X76.0495 Y19.4756
G01 X76.0466 Y19.5310
G01 X76.0464 Y19.5559
G01 X76.0440 Y19.5808
G01 X76.0411 Y19.6361
G01 X76.0388 Y19.6461
G01 X76.0348 Y19.6680
G01 X76.0338 Y19.6757
G01 X76.0162 Y19.7299
G01 X75.9995 Y19.7913
G01 X75.9962 Y19.7984
G01 X75.9876 Y19.8189
G01 X75.9841 Y19.8285
G01 X75.9525 Y19.8837
G01 X75.9266 Y19.9345
G01 X75.9218 Y19.9407
G01 X75.9092 Y19.9590
G01 X75.9038 Y19.9677
G01 X75.8667 Y20.0089
G01 X75.8508 Y20.0281
G01 X75.8333 Y20.0459
G01 X75.7962 Y20.0871
G01 X75.7882 Y20.0935
G01 X75.7713 Y20.1079
G01 X75.7659 Y20.1130
G01 X70.0572 Y25.8217
G01 X70.0522 Y25.8270
G01 X70.0377 Y25.8439
G01 X70.0314 Y25.8520
G01 X69.9902 Y25.8891
G01 X69.9724 Y25.9065
G01 X69.9531 Y25.9225
G01 X69.9119 Y25.9595
G01 X69.9033 Y25.9650
G01 X69.8850 Y25.9776
G01 X69.8788 Y25.9823
G01 X69.8222 Y26.0114
G01 X69.7728 Y26.0399
G01 X69.7654 Y26.0425
G01 X69.7449 Y26.0510
G01 X69.7356 Y26.0553
G01 X69.6742 Y26.0719
G01 X69.6199 Y26.0895
G01 X69.6122 Y26.0906
G01 X69.5904 Y26.0946
G01 X69.5804 Y26.0969
G01 X69.5251 Y26.0998
G01 X69.5002 Y26.1021
G01 X69.4752 Y26.1024
G01 X69.4199 Y26.1053
G01 X69.4097 Y26.1040
G01 X69.3875 Y26.1023
G01 X69.3802 Y26.1021
G01 X57.2558 Y26.1021
G01 X57.2458 Y26.1025
G01 X57.2157 Y26.1057
G01 X57.2065 Y26.1070
G01 X57.1917 Y26.1107
G01 X57.1802 Y26.1149
G01 X57.1691 Y26.1203
G01 X57.1016 Y26.1573
G01 X57.0894 Y26.1658
G01 X57.0783 Y26.1756
G01 X56.4432 Y26.8110
G01 X56.4220 Y26.8371
G01 X56.4165 Y26.8444
G01 X56.4100 Y26.8549
G01 X56.4046 Y26.8659
G01 X56.3994 Y26.8803
G01 X56.3794 Y26.9484
G01 X56.3760 Y26.9629
G01 X56.3749 Y26.9717
G01 X56.3743 Y26.9836
G01 X56.3744 Y27.1085
G01 X56.3754 Y27.1205
G01 X56.3829 Y27.1676
G01 X56.3852 Y27.1768
G01 X56.3882 Y27.1858
G01 X56.3919 Y27.1946
G01 X56.3962 Y27.2030
G01 X56.4015 Y27.2116
G01 X56.4411 Y27.2705
G01 X56.4482 Y27.2800
G01 X56.4562 Y27.2888
G01 X56.4627 Y27.2949
G01 X56.4758 Y27.3058
G01 X56.6086 Y27.4592
G01 X56.6633 Y27.5485
G01 X56.6682 Y27.5558
G01 X56.6758 Y27.5655
G01 X56.7037 Y27.5973
G01 X56.7118 Y27.6058
G01 X56.7186 Y27.6118
G01 X56.7258 Y27.6173
G01 X56.7335 Y27.6222
G01 X56.7414 Y27.6266
G01 X56.7493 Y27.6302
G01 X56.8148 Y27.6578
G01 X56.8262 Y27.6619
G01 X56.8384 Y27.6650
G01 X56.8476 Y27.6666
G01 X56.8601 Y27.6675
G01 X56.8695 Y27.6674
G01 X56.8818 Y27.6661
G01 X56.9547 Y27.6534
G01 X56.9666 Y27.6508
G01 X56.9785 Y27.6468
G01 X56.9899 Y27.6417
G01 X57.0034 Y27.6337
G01 X57.0134 Y27.6262
G01 X57.0503 Y27.5923
G01 X57.0597 Y27.5855
G01 X57.0667 Y27.5794
G01 X57.0732 Y27.5729
G01 X57.0791 Y27.5659
G01 X57.2072 Y27.3880
G01 X57.3509 Y27.2448
G01 X57.5160 Y27.1270
G01 X57.6982 Y27.0378
G01 X57.8925 Y26.9795
G01 X58.0936 Y26.9537
G01 X58.2963 Y26.9611
G01 X58.4951 Y27.0016
G01 X58.6846 Y27.0739
G01 X58.8597 Y27.1763
G01 X59.0158 Y27.3058
G01 X59.1486 Y27.4592
G01 X59.2033 Y27.5485
G01 X59.2082 Y27.5558
G01 X59.2158 Y27.5655
G01 X59.2456 Y27.5994
G01 X59.2518 Y27.6058
G01 X59.2586 Y27.6118
G01 X59.2709 Y27.6206
G01 X59.2841 Y27.6279
G01 X59.3575 Y27.6589
G01 X59.3692 Y27.6628
G01 X59.3784 Y27.6650
G01 X59.3876 Y27.6666
G01 X59.4001 Y27.6675
G01 X59.4095 Y27.6674
G01 X59.4218 Y27.6661
G01 X59.4947 Y27.6534
G01 X59.5066 Y27.6508
G01 X59.5185 Y27.6468
G01 X59.5299 Y27.6417
G01 X59.5434 Y27.6337
G01 X59.5534 Y27.6262
G01 X59.5903 Y27.5923
G01 X59.5997 Y27.5855
G01 X59.6067 Y27.5794
G01 X59.6132 Y27.5729
G01 X59.6191 Y27.5659
G01 X59.7472 Y27.3880
G01 X59.8909 Y27.2448
G01 X60.0560 Y27.1270
G01 X60.2382 Y27.0378
G01 X60.4325 Y26.9795
G01 X60.6336 Y26.9537
G01 X60.8363 Y26.9611
G01 X61.0351 Y27.0016
G01 X61.2246 Y27.0739
G01 X61.3997 Y27.1763
G01 X61.5558 Y27.3058
G01 X61.6886 Y27.4592
G01 X61.7433 Y27.5485
G01 X61.7482 Y27.5558
G01 X61.7558 Y27.5655
G01 X61.7856 Y27.5994
G01 X61.7918 Y27.6058
G01 X61.7986 Y27.6118
G01 X61.8109 Y27.6206
G01 X61.8241 Y27.6279
G01 X61.8975 Y27.6589
G01 X61.9092 Y27.6628
G01 X61.9184 Y27.6650
G01 X61.9276 Y27.6666
G01 X61.9370 Y27.6674
G01 X61.9495 Y27.6674
G01 X61.9618 Y27.6661
G01 X62.0347 Y27.6534
G01 X62.0436 Y27.6516
G01 X62.0555 Y27.6479
G01 X62.0699 Y27.6417
G01 X62.0834 Y27.6337
G01 X62.0934 Y27.6262
G01 X62.1303 Y27.5923
G01 X62.1397 Y27.5855
G01 X62.1467 Y27.5794
G01 X62.1532 Y27.5729
G01 X62.1591 Y27.5659
G01 X62.2872 Y27.3880
G01 X62.4309 Y27.2448
G01 X62.5960 Y27.1270
G01 X62.7782 Y27.0378
G01 X62.9725 Y26.9795
G01 X63.1736 Y26.9537
G01 X63.3763 Y26.9611
G01 X63.5751 Y27.0016
G01 X63.7646 Y27.0739
G01 X63.9397 Y27.1763
G01 X64.0958 Y27.3058
G01 X64.2286 Y27.4592
G01 X64.2833 Y27.5485
G01 X64.2882 Y27.5558
G01 X64.2958 Y27.5655
G01 X64.3256 Y27.5994
G01 X64.3318 Y27.6058
G01 X64.3386 Y27.6118
G01 X64.3509 Y27.6206
G01 X64.3641 Y27.6279
G01 X64.4375 Y27.6589
G01 X64.4492 Y27.6628
G01 X64.4584 Y27.6650
G01 X64.4676 Y27.6666
G01 X64.4770 Y27.6674
G01 X64.4895 Y27.6674
G01 X64.5018 Y27.6661
G01 X64.5747 Y27.6534
G01 X64.5836 Y27.6516
G01 X64.5985 Y27.6468
G01 X64.6099 Y27.6417
G01 X64.6234 Y27.6337
G01 X64.6334 Y27.6262
G01 X64.6703 Y27.5923
G01 X64.6797 Y27.5855
G01 X64.6867 Y27.5794
G01 X64.6932 Y27.5729
G01 X64.6991 Y27.5659
G01 X64.8272 Y27.3880
G01 X64.9709 Y27.2448
G01 X65.1360 Y27.1270
G01 X65.3182 Y27.0378
G01 X65.5125 Y26.9795
G01 X65.7136 Y26.9537
G01 X65.9163 Y26.9611
G01 X66.1151 Y27.0016
G01 X66.3046 Y27.0739
G01 X66.4797 Y27.1763
G01 X66.6358 Y27.3058
G01 X66.7686 Y27.4592
G01 X66.8233 Y27.5485
G01 X66.8282 Y27.5558
G01 X66.8358 Y27.5655
G01 X66.8656 Y27.5994
G01 X66.8718 Y27.6058
G01 X66.8786 Y27.6118
G01 X66.8909 Y27.6206
G01 X66.9041 Y27.6279
G01 X66.9748 Y27.6578
G01 X66.9862 Y27.6619
G01 X66.9953 Y27.6644
G01 X67.0045 Y27.6661
G01 X67.0139 Y27.6672
G01 X67.0264 Y27.6675
G01 X67.0418 Y27.6661
G01 X67.1147 Y27.6534
G01 X67.1236 Y27.6516
G01 X67.1385 Y27.6468
G01 X67.1499 Y27.6417
G01 X67.1634 Y27.6337
G01 X67.1734 Y27.6262
G01 X67.2103 Y27.5923
G01 X67.2197 Y27.5855
G01 X67.2267 Y27.5794
G01 X67.2332 Y27.5729
G01 X67.2391 Y27.5659
G01 X67.3672 Y27.3880
G01 X67.5109 Y27.2448
G01 X67.6760 Y27.1270
G01 X67.8582 Y27.0378
G01 X68.0525 Y26.9795
G01 X68.2536 Y26.9537
G01 X68.4563 Y26.9611
G01 X68.6551 Y27.0016
G01 X68.8446 Y27.0739
G01 X69.0197 Y27.1763
G01 X69.1758 Y27.3058
G01 X69.3086 Y27.4592
G01 X69.3633 Y27.5485
G01 X69.3682 Y27.5558
G01 X69.3741 Y27.5634
G01 X69.4037 Y27.5973
G01 X69.4096 Y27.6037
G01 X69.4163 Y27.6098
G01 X69.4234 Y27.6155
G01 X69.4309 Y27.6206
G01 X69.4387 Y27.6252
G01 X69.4467 Y27.6291
G01 X69.5203 Y27.6599
G01 X69.5323 Y27.6636
G01 X69.5445 Y27.6661
G01 X69.5601 Y27.6675
G01 X69.5695 Y27.6674
G01 X69.5789 Y27.6666
G01 X69.6605 Y27.6523
G01 X69.6726 Y27.6489
G01 X69.6871 Y27.6431
G01 X69.7008 Y27.6354
G01 X69.7109 Y27.6282
G01 X69.7178 Y27.6222
G01 X69.7503 Y27.5923
G01 X69.7573 Y27.5874
G01 X69.7644 Y27.5815
G01 X69.7710 Y27.5751
G01 X69.7772 Y27.5683
G01 X69.7828 Y27.5610
G01 X69.9072 Y27.3880
G01 X70.0509 Y27.2448
G01 X70.2160 Y27.1270
G01 X70.3982 Y27.0378
G01 X70.5925 Y26.9795
G01 X70.7936 Y26.9537
G01 X70.9963 Y26.9611
G01 X71.1951 Y27.0016
G01 X71.3846 Y27.0739
G01 X71.5597 Y27.1763
G01 X71.7158 Y27.3058
G01 X71.8486 Y27.4592
G01 X71.9546 Y27.6321
G01 X72.0309 Y27.8200
G01 X72.0755 Y28.0179
G01 X72.0872 Y28.2204
G01 X72.0656 Y28.4221
G01 X72.0114 Y28.6176
G01 X71.9260 Y28.8015
G01 X71.8117 Y28.9691
G01 X71.6818 Y29.1051
G01 X71.6611 Y29.1309
G01 X71.6526 Y29.1431
G01 X71.6456 Y29.1562
G01 X71.6402 Y29.1701
G01 X71.6186 Y29.2440
G01 X71.6156 Y29.2585
G01 X71.6146 Y29.2674
G01 X71.6143 Y29.2763
G01 X71.6143 Y31.7675
G01 X71.6145 Y31.7749
G01 X71.6162 Y31.7971
G01 X71.6174 Y31.8072
G01 X71.6146 Y31.8626
G01 X71.6143 Y31.8875
G01 X71.6119 Y31.9124
G01 X71.6090 Y31.9677
G01 X71.6068 Y31.9777
G01 X71.6027 Y31.9996
G01 X71.6017 Y32.0073
G01 X71.5841 Y32.0615
G01 X71.5674 Y32.1229
G01 X71.5641 Y32.1300
G01 X71.5556 Y32.1505
G01 X71.5520 Y32.1601
G01 X71.5204 Y32.2153
G01 X71.4945 Y32.2661
G01 X71.4898 Y32.2723
G01 X71.4772 Y32.2906
G01 X71.4717 Y32.2993
G01 X71.4346 Y32.3405
G01 X71.4187 Y32.3597
G01 X71.4013 Y32.3775
G01 X71.3642 Y32.4187
G01 X71.3561 Y32.4251
G01 X71.3392 Y32.4395
G01 X71.3339 Y32.4446
G01 X66.6002 Y37.1782
G01 X66.5910 Y37.1880
G01 X66.5847 Y37.1953
G01 X66.5777 Y37.2050
G01 X66.5731 Y37.2126
G01 X66.5687 Y37.2213
G01 X66.5393 Y37.2859
G01 X66.5358 Y37.2942
G01 X66.5328 Y37.3032
G01 X66.5306 Y37.3123
G01 X66.5290 Y37.3215
G01 X66.5281 Y37.3309
G01 X66.5281 Y37.3434
G01 X66.5292 Y37.3556
G01 X66.5398 Y37.4288
G01 X66.5433 Y37.4439
G01 X66.5475 Y37.4557
G01 X66.5543 Y37.4697
G01 X66.5611 Y37.4803
G01 X66.5686 Y37.4899
G01 X66.6171 Y37.5458
G01 X66.6282 Y37.5566
G01 X66.6407 Y37.5660
G01 X66.6542 Y37.5738
G01 X66.6687 Y37.5798
G01 X66.7453 Y37.6025
G01 X66.7599 Y37.6054
G01 X66.7688 Y37.6064
G01 X66.7777 Y37.6067
G01 X67.6304 Y37.6067
G01 X67.7149 Y37.6154
G01 X67.8559 Y37.6622
G01 X67.9817 Y37.7397
G01 X68.0862 Y37.8440
G01 X68.1640 Y37.9697
G01 X68.2110 Y38.1106
G01 X68.2199 Y38.1963
G01 X68.2199 Y39.5342
G01 X68.2112 Y39.6187
G01 X68.1644 Y39.7598
G01 X68.0869 Y39.8855
G01 X68.0749 Y39.8981
G01 X68.0541 Y39.9240
G01 X68.0471 Y39.9340
G01 X68.0426 Y39.9420
G01 X68.0386 Y39.9503
G01 X68.0343 Y39.9618
G01 X68.0134 Y40.0329
G01 X68.0101 Y40.0473
G01 X68.0089 Y40.0562
G01 X68.0083 Y40.0681
G01 X68.0083 Y40.9023
G01 X68.0086 Y40.9097
G01 X68.0103 Y40.9319
G01 X68.0115 Y40.9420
G01 X68.0086 Y40.9973
G01 X68.0083 Y41.0223
G01 X68.0060 Y41.0472
G01 X68.0031 Y41.1025
G01 X68.0008 Y41.1125
G01 X67.9968 Y41.1344
G01 X67.9958 Y41.1421
G01 X67.9782 Y41.1963
G01 X67.9615 Y41.2577
G01 X67.9582 Y41.2648
G01 X67.9496 Y41.2853
G01 X67.9461 Y41.2949
G01 X67.9145 Y41.3501
G01 X67.8885 Y41.4009
G01 X67.8838 Y41.4071
G01 X67.8712 Y41.4254
G01 X67.8657 Y41.4341
G01 X67.8287 Y41.4753
G01 X67.8128 Y41.4945
G01 X67.7953 Y41.5123
G01 X67.7582 Y41.5535
G01 X67.7501 Y41.5599
G01 X67.7333 Y41.5743
G01 X67.7279 Y41.5794
G01 X62.8838 Y46.4235
G01 X62.8787 Y46.4289
G01 X62.8643 Y46.4457
G01 X62.8579 Y46.4538
G01 X62.8167 Y46.4909
G01 X62.7989 Y46.5084
G01 X62.7797 Y46.5243
G01 X62.7385 Y46.5613
G01 X62.7298 Y46.5668
G01 X62.7115 Y46.5794
G01 X62.7053 Y46.5841
G01 X62.6487 Y46.6132
G01 X62.5993 Y46.6417
G01 X62.5920 Y46.6443
G01 X62.5714 Y46.6528
G01 X62.5621 Y46.6571
G01 X62.5008 Y46.6738
G01 X62.4465 Y46.6914
G01 X62.4388 Y46.6924
G01 X62.4169 Y46.6964
G01 X62.4069 Y46.6987
G01 X62.3516 Y46.7016
G01 X62.3267 Y46.7039
G01 X62.3017 Y46.7042
G01 X62.2464 Y46.7071
G01 X62.2363 Y46.7059
G01 X62.2141 Y46.7042
G01 X62.2067 Y46.7039
G01 X50.8874 Y46.7039
G01 X50.8740 Y46.7047
G01 X50.8472 Y46.7075
G01 X50.8381 Y46.7089
G01 X50.8291 Y46.7108
G01 X50.8203 Y46.7135
G01 X50.8117 Y46.7168
G01 X50.8034 Y46.7207
G01 X50.7332 Y46.7591
G01 X50.7234 Y46.7658
G01 X50.7120 Y46.7754
G01 X48.6554 Y48.8321
G01 X48.6470 Y48.8411
G01 X48.6412 Y48.8483
G01 X48.6344 Y48.8581
G01 X48.6300 Y48.8659
G01 X48.5964 Y48.9392
G01 X48.5921 Y48.9508
G01 X48.5896 Y48.9598
G01 X48.5878 Y48.9691
G01 X48.5867 Y48.9784
G01 X48.5863 Y48.9878
G01 X48.5866 Y48.9972
G01 X48.5876 Y49.0062
G01 X48.5986 Y49.0823
G01 X48.6016 Y49.0945
G01 X48.6058 Y49.1063
G01 X48.6127 Y49.1204
G01 X48.6194 Y49.1309
G01 X48.6269 Y49.1405
G01 X48.6754 Y49.1964
G01 X48.6841 Y49.2051
G01 X48.6914 Y49.2112
G01 X48.6990 Y49.2166
G01 X48.7098 Y49.2230
G01 X48.7182 Y49.2270
G01 X48.7270 Y49.2304
G01 X48.8037 Y49.2531
G01 X48.8153 Y49.2556
G01 X48.8271 Y49.2570
G01 X48.8360 Y49.2573
G01 X50.8611 Y49.2573
G01 X50.8776 Y49.2568
G01 X50.8926 Y49.2549
G01 X50.9070 Y49.2514
G01 X50.9827 Y49.2234
G01 X50.9939 Y49.2183
G01 X51.0021 Y49.2137
G01 X51.0099 Y49.2084
G01 X51.0197 Y49.2006
G01 X51.0264 Y49.1941
G01 X51.0346 Y49.1848
G01 X51.0790 Y49.1256
G01 X51.0857 Y49.1158
G01 X51.0914 Y49.1054
G01 X51.0950 Y49.0972
G01 X51.1369 Y48.9858
G01 X51.2027 Y48.8979
G01 X51.2906 Y48.8320
G01 X51.3955 Y48.7926
G01 X51.4353 Y48.7883
G01 X53.2181 Y48.7883
G01 X53.2579 Y48.7926
G01 X53.3628 Y48.8320
G01 X53.4507 Y48.8979
G01 X53.5166 Y48.9858
G01 X53.5546 Y49.0874
G01 X53.5606 Y49.1008
G01 X53.5806 Y49.1374
G01 X53.5874 Y49.1479
G01 X53.5931 Y49.1552
G01 X53.5993 Y49.1620
G01 X53.6060 Y49.1684
G01 X53.6136 Y49.1745
G01 X53.6752 Y49.2206
G01 X53.6887 Y49.2286
G01 X53.7030 Y49.2348
G01 X53.7180 Y49.2392
G01 X53.7333 Y49.2416
G01 X53.8071 Y49.2471
G01 X53.8224 Y49.2473
G01 X53.8349 Y49.2460
G01 X53.8472 Y49.2435
G01 X53.8562 Y49.2409
G01 X53.8678 Y49.2363
G01 X53.8760 Y49.2322
G01 X53.9383 Y49.1983
G01 X53.9509 Y49.1905
G01 X53.9580 Y49.1850
G01 X53.9668 Y49.1770
G01 X54.0678 Y49.0764
G01 X54.2329 Y48.9587
G01 X54.4151 Y48.8694
G01 X54.6094 Y48.8111
G01 X54.8106 Y48.7854
G01 X55.0133 Y48.7928
G01 X55.2120 Y48.8332
G01 X55.4015 Y48.9056
G01 X55.5766 Y49.0079
G01 X55.7327 Y49.1375
G01 X55.8655 Y49.2908
G01 X55.9205 Y49.3806
G01 X55.9254 Y49.3879
G01 X55.9313 Y49.3956
G01 X55.9608 Y49.4294
G01 X55.9712 Y49.4399
G01 X55.9830 Y49.4494
G01 X55.9906 Y49.4543
G01 X55.9986 Y49.4587
G01 X56.0065 Y49.4624
G01 X56.0747 Y49.4910
G01 X56.0864 Y49.4950
G01 X56.0986 Y49.4978
G01 X56.1110 Y49.4993
G01 X56.1235 Y49.4996
G01 X56.1329 Y49.4991
G01 X56.1419 Y49.4978
G01 X56.2118 Y49.4856
G01 X56.2238 Y49.4829
G01 X56.2356 Y49.4790
G01 X56.2498 Y49.4724
G01 X56.2605 Y49.4659
G01 X56.2728 Y49.4564
G01 X56.3081 Y49.4240
G01 X56.3171 Y49.4174
G01 X56.3240 Y49.4113
G01 X56.3305 Y49.4048
G01 X56.3365 Y49.3978
G01 X56.4645 Y49.2199
G01 X56.6081 Y49.0768
G01 X56.7732 Y48.9591
G01 X56.9553 Y48.8699
G01 X57.0277 Y48.8482
G01 X57.0277 Y49.1237
G01 X56.9471 Y49.1619
G01 X56.8702 Y49.2079
G01 X56.8600 Y49.2147
G01 X56.7882 Y49.2681
G01 X56.7217 Y49.3282
G01 X56.7130 Y49.3368
G01 X56.6530 Y49.4033
G01 X56.5960 Y49.4801
G01 X56.5468 Y49.5622
G01 X56.5084 Y49.6431
G01 X56.5037 Y49.6544
G01 X56.4737 Y49.7388
G01 X56.4504 Y49.8316
G01 X56.4372 Y49.9202
G01 X56.4359 Y49.9324
G01 X56.4317 Y50.0218
G01 X56.4359 Y50.1113
G01 X56.4372 Y50.1235
G01 X56.4504 Y50.2120
G01 X56.4737 Y50.3049
G01 X56.5037 Y50.3892
G01 X56.5084 Y50.4005
G01 X56.5468 Y50.4814
G01 X56.5960 Y50.5635
G01 X56.6530 Y50.6404
G01 X56.7130 Y50.7068
G01 X56.7217 Y50.7155
G01 X56.7882 Y50.7755
G01 X56.8600 Y50.8290
G01 X56.8702 Y50.8358
G01 X56.9471 Y50.8817
G01 X57.0277 Y50.9200
G01 X57.0277 Y51.1957
G01 X56.8995 Y51.1503
G01 X56.7220 Y51.0523
G01 X56.5629 Y50.9267
G01 X56.4265 Y50.7767
G01 X56.3457 Y50.6520
G01 X56.3392 Y50.6436
G01 X56.3185 Y50.6191
G01 X56.3078 Y50.6080
G01 X56.2963 Y50.5986
G01 X56.2837 Y50.5906
G01 X56.2089 Y50.5539
G01 X56.1971 Y50.5495
G01 X56.1850 Y50.5463
G01 X56.1727 Y50.5443
G01 X56.1602 Y50.5436
G01 X56.1449 Y50.5444
G01 X56.0714 Y50.5530
G01 X56.0562 Y50.5561
G01 X56.0414 Y50.5611
G01 X56.0273 Y50.5679
G01 X56.0142 Y50.5764
G01 X55.9523 Y50.6270
G01 X55.9416 Y50.6373
G01 X55.9323 Y50.6489
G01 X55.8286 Y50.8008
G01 X55.7842 Y50.8473
G01 X55.7762 Y50.8571
G01 X55.7708 Y50.8649
G01 X55.7423 Y50.9106
G01 X55.7366 Y50.9214
G01 X55.7319 Y50.9327
G01 X55.7284 Y50.9443
G01 X55.7261 Y50.9563
G01 X55.7251 Y50.9654
G01 X55.7198 Y51.0392
G01 X55.7199 Y51.0516
G01 X55.7211 Y51.0640
G01 X55.7229 Y51.0733
G01 X55.7254 Y51.0823
G01 X55.7285 Y51.0912
G01 X55.7336 Y51.1024
G01 X55.7705 Y51.1700
G01 X55.7769 Y51.1800
G01 X55.7843 Y51.1893
G01 X55.7903 Y51.1959
G01 X56.5843 Y51.9896
G01 X56.6152 Y52.0146
G01 X56.6255 Y52.0213
G01 X56.6364 Y52.0270
G01 X56.6507 Y52.0325
G01 X56.7246 Y52.0542
G01 X56.7392 Y52.0572
G01 X56.7480 Y52.0582
G01 X56.7569 Y52.0585
G01 X59.0669 Y52.0585
G01 X59.0742 Y52.0583
G01 X59.0964 Y52.0566
G01 X59.1066 Y52.0553
G01 X59.1619 Y52.0582
G01 X59.1869 Y52.0585
G01 X59.2118 Y52.0608
G01 X59.2671 Y52.0638
G01 X59.2771 Y52.0660
G01 X59.2989 Y52.0701
G01 X59.3066 Y52.0711
G01 X59.3609 Y52.0887
G01 X59.4223 Y52.1053
G01 X59.4293 Y52.1087
G01 X59.4498 Y52.1172
G01 X59.4595 Y52.1207
G01 X59.5147 Y52.1524
G01 X59.5655 Y52.1783
G01 X59.5717 Y52.1830
G01 X59.5900 Y52.1956
G01 X59.5986 Y52.2011
G01 X59.6398 Y52.2382
G01 X59.6591 Y52.2541
G01 X59.6769 Y52.2715
G01 X59.7181 Y52.3086
G01 X59.7244 Y52.3167
G01 X59.7389 Y52.3336
G01 X59.7439 Y52.3389
G01 X62.4860 Y55.0810
G01 X62.4913 Y55.0861
G01 X62.5082 Y55.1005
G01 X62.5163 Y55.1068
G01 X62.5534 Y55.1480
G01 X62.5708 Y55.1659
G01 X62.5868 Y55.1851
G01 X62.6238 Y55.2263
G01 X62.6293 Y55.2350
G01 X62.6419 Y55.2533
G01 X62.6466 Y55.2594
G01 X62.6725 Y55.3102
G01 X62.7042 Y55.3654
G01 X62.7077 Y55.3751
G01 X62.7162 Y55.3956
G01 X62.7196 Y55.4026
G01 X62.7362 Y55.4640
G01 X62.7538 Y55.5183
G01 X62.7549 Y55.5260
G01 X62.7589 Y55.5479
G01 X62.7612 Y55.5579
G01 X62.7641 Y55.6132
G01 X62.7664 Y55.6380
G01 X62.7667 Y55.6630
G01 X62.7696 Y55.7183
G01 X62.7684 Y55.7285
G01 X62.7666 Y55.7507
G01 X62.7664 Y55.7580
G01 X62.7666 Y60.7141
G01 X62.7671 Y60.7208
G01 X62.7686 Y60.7307
G01 X62.7814 Y60.7894
G01 X62.7860 Y60.8043
G01 X62.7910 Y60.8157
G01 X62.7972 Y60.8266
G01 X62.8063 Y60.8392
G01 X62.8588 Y60.8997
G01 X62.8679 Y60.9083
G01 X62.8778 Y60.9160
G01 X62.8884 Y60.9226
G01 X62.9025 Y60.9293
G01 X62.9141 Y60.9334
G01 X62.9822 Y60.9534
G01 X62.9967 Y60.9567
G01 X63.0085 Y60.9581
G01 X63.0174 Y60.9584
G01 X66.1539 Y60.9584
G01 X66.1640 Y60.9580
G01 X66.1941 Y60.9548
G01 X66.2092 Y60.9523
G01 X66.2239 Y60.9479
G01 X66.2324 Y60.9444
G01 X66.2406 Y60.9402
G01 X66.3081 Y60.9032
G01 X66.3203 Y60.8948
G01 X66.3293 Y60.8870
G01 X67.4318 Y59.7845
G01 X67.4369 Y59.7791
G01 X67.4513 Y59.7623
G01 X67.4577 Y59.7542
G01 X67.4988 Y59.7171
G01 X67.5167 Y59.6996
G01 X67.5359 Y59.6837
G01 X67.5771 Y59.6467
G01 X67.5858 Y59.6412
G01 X67.6041 Y59.6286
G01 X67.6102 Y59.6239
G01 X67.6610 Y59.5979
G01 X67.7163 Y59.5663
G01 X67.7259 Y59.5628
G01 X67.7464 Y59.5543
G01 X67.7534 Y59.5509
G01 X67.8148 Y59.5342
G01 X67.8691 Y59.5166
G01 X67.8768 Y59.5156
G01 X67.8987 Y59.5116
G01 X67.9087 Y59.5093
G01 X67.9640 Y59.5064
G01 X67.9888 Y59.5041
G01 X68.0138 Y59.5038
G01 X68.0691 Y59.5009
G01 X68.0793 Y59.5021
G01 X68.1015 Y59.5038
G01 X68.1088 Y59.5041
G01 X70.1740 Y59.5041
G01 X70.1892 Y59.5031
G01 X70.2319 Y59.4968
G01 X70.2413 Y59.4948
G01 X70.2532 Y59.4911
G01 X70.2619 Y59.4876
G01 X70.2730 Y59.4819
G01 X70.3382 Y59.4396
G01 X70.3455 Y59.4344
G01 X70.3524 Y59.4288
G01 X70.3589 Y59.4226
G01 X70.3649 Y59.4161
G01 X70.4749 Y59.2873
G01 X70.6405 Y59.1458
G01 X70.8262 Y59.0320
G01 X71.0274 Y58.9487
G01 X71.2391 Y58.8979
G01 X71.4562 Y58.8808
G01 X71.6281 Y58.8943
G01 X71.6403 Y58.8943
G01 X71.6868 Y58.8910
G01 X71.6960 Y58.8896
G01 X71.7051 Y58.8874
G01 X71.7140 Y58.8846
G01 X71.7255 Y58.8798
G01 X71.7938 Y58.8427
G01 X71.8064 Y58.8348
G01 X71.8157 Y58.8274
G01 X71.8223 Y58.8213
G01 X73.4219 Y57.2218
G01 X73.4308 Y57.2118
G01 X73.4477 Y57.1908
G01 X73.4532 Y57.1835
G01 X73.4611 Y57.1703
G01 X73.4674 Y57.1563
G01 X73.4703 Y57.1476
G01 X73.4911 Y57.0766
G01 X73.4941 Y57.0621
G01 X73.4953 Y57.0472
G01 X73.4954 Y55.6984
G01 X73.4950 Y55.6884
G01 X73.4914 Y55.6552
G01 X73.4892 Y55.6431
G01 X73.4868 Y55.6343
G01 X73.4837 Y55.6256
G01 X73.4800 Y55.6172
G01 X73.4432 Y55.5494
G01 X73.4370 Y55.5392
G01 X73.4299 Y55.5297
G01 X73.4239 Y55.5230
G01 X73.3498 Y55.4488
G01 X73.2310 Y55.2792
G01 X73.1435 Y55.0915
G01 X73.0899 Y54.8915
G01 X73.0718 Y54.6852
G01 X73.0899 Y54.4789
G01 X73.1435 Y54.2789
G01 X73.2310 Y54.0912
G01 X73.3498 Y53.9216
G01 X73.4962 Y53.7751
G01 X73.6667 Y53.6558
G01 X73.6780 Y53.6492
G01 X73.6877 Y53.6423
G01 X73.7283 Y53.6073
G01 X73.7348 Y53.6012
G01 X73.7447 Y53.5901
G01 X73.7500 Y53.5829
G01 X73.7547 Y53.5753
G01 X73.7589 Y53.5674
G01 X73.7625 Y53.5593
G01 X73.7889 Y53.4933
G01 X73.7929 Y53.4818
G01 X73.7957 Y53.4696
G01 X73.7974 Y53.4572
G01 X73.7978 Y53.4447
G01 X73.7970 Y53.4322
G01 X73.7956 Y53.4232
G01 X73.7815 Y53.3506
G01 X73.7783 Y53.3387
G01 X73.7739 Y53.3270
G01 X73.7667 Y53.3131
G01 X73.7578 Y53.3001
G01 X73.7499 Y53.2909
G01 X73.7207 Y53.2603
G01 X73.9318 Y53.0492
G01 X73.9914 Y53.0704
G01 X74.0734 Y53.0911
G01 X74.0824 Y53.0930
G01 X74.1692 Y53.1057
G01 X74.2599 Y53.1102
G01 X74.3505 Y53.1057
G01 X74.4373 Y53.0930
G01 X74.4463 Y53.0911
G01 X74.5284 Y53.0704
G01 X74.5879 Y53.0492
G01 X74.7967 Y53.2580
G01 X74.7849 Y53.2686
G01 X74.7769 Y53.2774
G01 X74.7681 Y53.2894
G01 X74.7609 Y53.3024
G01 X74.7573 Y53.3106
G01 X74.7298 Y53.3793
G01 X74.7253 Y53.3941
G01 X74.7230 Y53.4064
G01 X74.7219 Y53.4220
G01 X74.7222 Y53.4314
G01 X74.7232 Y53.4407
G01 X74.7382 Y53.5192
G01 X74.7414 Y53.5312
G01 X74.7459 Y53.5429
G01 X74.7500 Y53.5513
G01 X74.7564 Y53.5621
G01 X74.7619 Y53.5697
G01 X74.7699 Y53.5789
G01 X74.8189 Y53.6303
G01 X74.8298 Y53.6404
G01 X74.8418 Y53.6492
G01 X74.8531 Y53.6558
G01 X75.0235 Y53.7751
G01 X75.0956 Y53.8472
G01 X75.1029 Y53.8540
G01 X75.1289 Y53.8749
G01 X75.1364 Y53.8802
G01 X75.1443 Y53.8850
G01 X75.1525 Y53.8892
G01 X75.1668 Y53.8947
G01 X75.2436 Y53.9172
G01 X75.2553 Y53.9194
G01 X75.2701 Y53.9207
G01 X76.5375 Y53.9207
G01 X76.5508 Y53.9200
G01 X76.5776 Y53.9171
G01 X76.5867 Y53.9158
G01 X76.5957 Y53.9138
G01 X76.6045 Y53.9112
G01 X76.6131 Y53.9079
G01 X76.6215 Y53.9040
G01 X76.6891 Y53.8670
G01 X76.6991 Y53.8606
G01 X76.7084 Y53.8533
G01 X76.7150 Y53.8472
G01 X77.3606 Y53.2015
G01 X77.3657 Y53.1961
G01 X77.3801 Y53.1793
G01 X77.3865 Y53.1712
G01 X77.4277 Y53.1341
G01 X77.4455 Y53.1167
G01 X77.4647 Y53.1007
G01 X77.5059 Y53.0637
G01 X77.5146 Y53.0582
G01 X77.5329 Y53.0456
G01 X77.5391 Y53.0409
G01 X77.5899 Y53.0149
G01 X77.6451 Y52.9833
G01 X77.6547 Y52.9798
G01 X77.6752 Y52.9713
G01 X77.6823 Y52.9679
G01 X77.7436 Y52.9512
G01 X77.7979 Y52.9337
G01 X77.8056 Y52.9326
G01 X77.8275 Y52.9286
G01 X77.8375 Y52.9263
G01 X77.8928 Y52.9234
G01 X77.9177 Y52.9211
G01 X77.9426 Y52.9208
G01 X77.9980 Y52.9179
G01 X78.0081 Y52.9191
G01 X78.0303 Y52.9209
G01 X78.0377 Y52.9211
G01 X78.7410 Y52.9210
G01 X78.7565 Y52.9198
G01 X78.8000 Y52.9125
G01 X78.8114 Y52.9101
G01 X78.8200 Y52.9074
G01 X78.8285 Y52.9042
G01 X78.8366 Y52.9004
G01 X78.8445 Y52.8960
G01 X78.8517 Y52.8912
G01 X78.9096 Y52.8501
G01 X78.9190 Y52.8428
G01 X78.9276 Y52.8346
G01 X78.9336 Y52.8280
G01 X78.9783 Y52.7713
G01 X79.1410 Y52.6233
G01 X79.1497 Y52.6168
G01 X79.1763 Y52.5945
G01 X79.1832 Y52.5881
G01 X79.1894 Y52.5816
G01 X79.1968 Y52.5723
G01 X79.2048 Y52.5597
G01 X79.2391 Y52.4903
G01 X79.2428 Y52.4820
G01 X79.2459 Y52.4731
G01 X79.2484 Y52.4641
G01 X79.2503 Y52.4549
G01 X79.2516 Y52.4424
G01 X79.2515 Y52.4268
G01 X79.2424 Y52.3474
G01 X79.2408 Y52.3383
G01 X79.2385 Y52.3292
G01 X79.2355 Y52.3203
G01 X79.2318 Y52.3116
G01 X79.2259 Y52.3006
G01 X79.2172 Y52.2878
G01 X79.1703 Y52.2306
G01 X79.1624 Y52.2217
G01 X79.1558 Y52.2156
G01 X79.1489 Y52.2100
G01 X79.1154 Y52.1870
G01 X78.9567 Y52.0353
G01 X78.8248 Y51.8597
G01 X78.7234 Y51.6649
G01 X78.6776 Y51.5246
G01 X78.9512 Y51.5246
G01 X78.9611 Y51.5522
G01 X78.9645 Y51.5607
G01 X79.0058 Y51.6480
G01 X79.0100 Y51.6562
G01 X79.0629 Y51.7442
G01 X79.1240 Y51.8267
G01 X79.1299 Y51.8338
G01 X79.1927 Y51.9030
G01 X79.2013 Y51.9117
G01 X79.2752 Y51.9785
G01 X79.3576 Y52.0397
G01 X79.3653 Y52.0448
G01 X79.4455 Y52.0928
G01 X79.4563 Y52.0986
G01 X79.5464 Y52.1411
G01 X79.6460 Y52.1767
G01 X79.7426 Y52.2010
G01 X79.7546 Y52.2034
G01 X79.8532 Y52.2179
G01 X79.9527 Y52.2229
G01 X80.0569 Y52.2230
G01 X80.1563 Y52.2181
G01 X80.1655 Y52.2171
G01 X80.2580 Y52.2034
G01 X80.2700 Y52.2010
G01 X80.3666 Y52.1767
G01 X80.4661 Y52.1411
G01 X80.5617 Y52.0958
G01 X80.6524 Y52.0415
G01 X80.7373 Y51.9785
G01 X80.8113 Y51.9117
G01 X80.8199 Y51.9030
G01 X80.8827 Y51.8338
G01 X80.8905 Y51.8243
G01 X80.9497 Y51.7442
G01 X81.0010 Y51.6588
G01 X81.0050 Y51.6518
G01 X81.2914 Y51.6518
G01 X81.2761 Y51.6949
G01 X81.1700 Y51.8872
G01 X81.0339 Y52.0595
G01 X80.8715 Y52.2073
G01 X80.8628 Y52.2137
G01 X80.8339 Y52.2382
G01 X80.8273 Y52.2446
G01 X80.8194 Y52.2535
G01 X80.8124 Y52.2632
G01 X80.8062 Y52.2736
G01 X80.7735 Y52.3403
G01 X80.7698 Y52.3486
G01 X80.7657 Y52.3604
G01 X80.7628 Y52.3726
G01 X80.7615 Y52.3819
G01 X80.7608 Y52.3944
G01 X80.7616 Y52.4097
G01 X80.7698 Y52.4802
G01 X80.7718 Y52.4923
G01 X80.7760 Y52.5073
G01 X80.7808 Y52.5189
G01 X80.7866 Y52.5300
G01 X80.7936 Y52.5404
G01 X80.8423 Y52.6000
G01 X80.8523 Y52.6109
G01 X80.8590 Y52.6168
G01 X80.8661 Y52.6223
G01 X80.8974 Y52.6437
G01 X81.0563 Y52.7955
G01 X81.1882 Y52.9712
G01 X81.2896 Y53.1661
G01 X81.3579 Y53.3749
G01 X81.3911 Y53.5921
G01 X81.3884 Y53.8117
G01 X81.3499 Y54.0280
G01 X81.2766 Y54.2351
G01 X81.1704 Y54.4274
G01 X81.0342 Y54.5998
G01 X80.8717 Y54.7477
G01 X80.6873 Y54.8670
G01 X80.6052 Y54.9027
G01 X80.4858 Y54.9546
G01 X80.2727 Y55.0082
G01 X80.1096 Y55.0216
G01 X79.8869 Y55.0216
G01 X79.7076 Y55.0024
G01 X79.4959 Y54.9437
G01 X79.2966 Y54.8512
G01 X79.1151 Y54.7274
G01 X78.9563 Y54.5756
G01 X78.9339 Y54.5460
G01 X78.9284 Y54.5397
G01 X78.9225 Y54.5339
G01 X78.8899 Y54.5035
G01 X78.8807 Y54.4958
G01 X78.8679 Y54.4872
G01 X78.8541 Y54.4802
G01 X78.8400 Y54.4751
G01 X78.7690 Y54.4543
G01 X78.7573 Y54.4518
G01 X78.7455 Y54.4504
G01 X78.7366 Y54.4501
G01 X78.3784 Y54.4501
G01 X78.3683 Y54.4505
G01 X78.3382 Y54.4537
G01 X78.3291 Y54.4550
G01 X78.3172 Y54.4578
G01 X78.3027 Y54.4629
G01 X78.2917 Y54.4682
G01 X78.2268 Y54.5037
G01 X78.2192 Y54.5085
G01 X78.2097 Y54.5156
G01 X78.2009 Y54.5236
G01 X77.5552 Y55.1693
G01 X77.5502 Y55.1746
G01 X77.5357 Y55.1915
G01 X77.5294 Y55.1996
G01 X77.4882 Y55.2367
G01 X77.4704 Y55.2541
G01 X77.4511 Y55.2700
G01 X77.4099 Y55.3071
G01 X77.4013 Y55.3126
G01 X77.3830 Y55.3252
G01 X77.3768 Y55.3299
G01 X77.3202 Y55.3590
G01 X77.2708 Y55.3875
G01 X77.2634 Y55.3901
G01 X77.2429 Y55.3985
G01 X77.2336 Y55.4029
G01 X77.1785 Y55.4177
G01 X77.1179 Y55.4371
G01 X77.1102 Y55.4381
G01 X77.0884 Y55.4422
G01 X77.0784 Y55.4444
G01 X77.0231 Y55.4474
G01 X76.9982 Y55.4497
G01 X76.9732 Y55.4500
G01 X76.9179 Y55.4529
G01 X76.9077 Y55.4516
G01 X76.8855 Y55.4499
G01 X76.8782 Y55.4497
G01 X75.2720 Y55.4497
G01 X75.2620 Y55.4504
G01 X75.2521 Y55.4519
G01 X75.1965 Y55.4639
G01 X75.1874 Y55.4663
G01 X75.1756 Y55.4704
G01 X75.1671 Y55.4743
G01 X75.1562 Y55.4805
G01 X75.1460 Y55.4876
G01 X75.0831 Y55.5421
G01 X75.0725 Y55.5536
G01 X75.0668 Y55.5611
G01 X75.0618 Y55.5690
G01 X75.0559 Y55.5801
G01 X75.0503 Y55.5945
G01 X75.0286 Y55.6683
G01 X75.0261 Y55.6800
G01 X75.0249 Y55.6888
G01 X75.0244 Y55.7007
G01 X75.0244 Y57.3850
G01 X75.0246 Y57.3923
G01 X75.0263 Y57.4145
G01 X75.0275 Y57.4247
G01 X75.0246 Y57.4800
G01 X75.0244 Y57.5050
G01 X75.0220 Y57.5298
G01 X75.0191 Y57.5852
G01 X75.0168 Y57.5952
G01 X75.0128 Y57.6170
G01 X75.0118 Y57.6247
G01 X74.9942 Y57.6790
G01 X74.9775 Y57.7404
G01 X74.9742 Y57.7474
G01 X74.9657 Y57.7679
G01 X74.9621 Y57.7776
G01 X74.9305 Y57.8328
G01 X74.9046 Y57.8836
G01 X74.8998 Y57.8898
G01 X74.8872 Y57.9081
G01 X74.8818 Y57.9167
G01 X74.8447 Y57.9579
G01 X74.8288 Y57.9772
G01 X74.8113 Y57.9950
G01 X74.7742 Y58.0362
G01 X74.7662 Y58.0425
G01 X74.7493 Y58.0570
G01 X74.7439 Y58.0620
G01 X72.9034 Y59.9025
G01 X72.8933 Y59.9139
G01 X72.8696 Y59.9458
G01 X72.8640 Y59.9540
G01 X72.8579 Y59.9648
G01 X72.8541 Y59.9734
G01 X72.8500 Y59.9851
G01 X72.8476 Y59.9947
G01 X72.8330 Y60.0642
G01 X72.8308 Y60.0789
G01 X72.8303 Y60.0878
G01 X72.8307 Y60.0997
G01 X72.8440 Y60.2686
G01 X72.8269 Y60.4857
G01 X72.7761 Y60.6974
G01 X72.6927 Y60.8986
G01 X72.5790 Y61.0843
G01 X72.4375 Y61.2499
G01 X72.2719 Y61.3913
G01 X72.0863 Y61.5051
G01 X71.8851 Y61.5884
G01 X71.6733 Y61.6393
G01 X71.4562 Y61.6563
G01 X71.2391 Y61.6393
G01 X71.0274 Y61.5884
G01 X70.8262 Y61.5051
G01 X70.6405 Y61.3913
G01 X70.4749 Y61.2499
G01 X70.3629 Y61.1188
G01 X70.3543 Y61.1101
G01 X70.3218 Y61.0817
G01 X70.3141 Y61.0759
G01 X70.3063 Y61.0708
G01 X70.2953 Y61.0649
G01 X70.2867 Y61.0613
G01 X70.2774 Y61.0581
G01 X70.2092 Y61.0381
G01 X70.1977 Y61.0353
G01 X70.1859 Y61.0336
G01 X70.1740 Y61.0331
G01 X68.4462 Y61.0331
G01 X68.4362 Y61.0338
G01 X68.4033 Y61.0375
G01 X68.3913 Y61.0400
G01 X68.3767 Y61.0447
G01 X68.3629 Y61.0512
G01 X68.2980 Y61.0867
G01 X68.2879 Y61.0931
G01 X68.2764 Y61.1025
G01 X67.1717 Y62.2070
G01 X67.1666 Y62.2123
G01 X67.1522 Y62.2292
G01 X67.1458 Y62.2373
G01 X67.1046 Y62.2744
G01 X67.0868 Y62.2918
G01 X67.0676 Y62.3078
G01 X67.0264 Y62.3448
G01 X67.0177 Y62.3503
G01 X66.9994 Y62.3629
G01 X66.9932 Y62.3676
G01 X66.9366 Y62.3967
G01 X66.8872 Y62.4252
G01 X66.8799 Y62.4278
G01 X66.8593 Y62.4363
G01 X66.8500 Y62.4406
G01 X66.7887 Y62.4572
G01 X66.7344 Y62.4748
G01 X66.7267 Y62.4759
G01 X66.7048 Y62.4799
G01 X66.6948 Y62.4822
G01 X66.6395 Y62.4851
G01 X66.6146 Y62.4874
G01 X66.5896 Y62.4877
G01 X66.5343 Y62.4906
G01 X66.5242 Y62.4894
G01 X66.5020 Y62.4876
G01 X66.4946 Y62.4874
G01 X52.9365 Y62.4874
G01 X52.9292 Y62.4876
G01 X52.9070 Y62.4894
G01 X52.8969 Y62.4906
G01 X52.8433 Y62.4878
G01 X52.8301 Y62.4874
G01 X50.1025 Y62.4874
G01 X50.0891 Y62.4881
G01 X50.0562 Y62.4918
G01 X50.0472 Y62.4936
G01 X50.0383 Y62.4960
G01 X50.0297 Y62.4991
G01 X50.0185 Y62.5042
G01 X49.9483 Y62.5426
G01 X49.9361 Y62.5511
G01 X49.9250 Y62.5609
G01 X47.2810 Y65.2049
G01 X47.2760 Y65.2102
G01 X47.2615 Y65.2271
G01 X47.2552 Y65.2352
G01 X47.2140 Y65.2723
G01 X47.1962 Y65.2897
G01 X47.1769 Y65.3057
G01 X47.1358 Y65.3427
G01 X47.1271 Y65.3482
G01 X47.1088 Y65.3608
G01 X47.1026 Y65.3655
G01 X47.0460 Y65.3946
G01 X46.9966 Y65.4231
G01 X46.9893 Y65.4257
G01 X46.9687 Y65.4342
G01 X46.9594 Y65.4385
G01 X46.8980 Y65.4551
G01 X46.8438 Y65.4727
G01 X46.8360 Y65.4738
G01 X46.8142 Y65.4778
G01 X46.8042 Y65.4801
G01 X46.7489 Y65.4830
G01 X46.7240 Y65.4853
G01 X46.6990 Y65.4856
G01 X46.6437 Y65.4885
G01 X46.6335 Y65.4873
G01 X46.6114 Y65.4855
G01 X46.6040 Y65.4853
G01 X21.4694 Y65.4853
G01 X21.4620 Y65.4855
G01 X21.4398 Y65.4873
G01 X21.4297 Y65.4885
G01 X21.3744 Y65.4856
G01 X21.3494 Y65.4853
G01 X21.3245 Y65.4830
G01 X21.2692 Y65.4801
G01 X21.2592 Y65.4778
G01 X21.2373 Y65.4738
G01 X21.2296 Y65.4727
G01 X21.1754 Y65.4551
G01 X21.1140 Y65.4385
G01 X21.1069 Y65.4351
G01 X21.0864 Y65.4266
G01 X21.0768 Y65.4231
G01 X21.0216 Y65.3914
G01 X20.9708 Y65.3655
G01 X20.9646 Y65.3608
G01 X20.9463 Y65.3482
G01 X20.9376 Y65.3427
G01 X20.8964 Y65.3057
G01 X20.8772 Y65.2897
G01 X20.8594 Y65.2723
G01 X20.8182 Y65.2352
G01 X20.8118 Y65.2271
G01 X20.7974 Y65.2102
G01 X20.7923 Y65.2049
G01 X17.0749 Y61.4875
G01 X17.0696 Y61.4824
G01 X17.0527 Y61.4680
G01 X17.0446 Y61.4616
G01 X17.0075 Y61.4205
G01 X16.9901 Y61.4026
G01 X16.9742 Y61.3834
G01 X16.9371 Y61.3422
G01 X16.9316 Y61.3335
G01 X16.9190 Y61.3152
G01 X16.9143 Y61.3091
G01 X16.8884 Y61.2582
G01 X16.8567 Y61.2030
G01 X16.8532 Y61.1934
G01 X16.8447 Y61.1729
G01 X16.8414 Y61.1659
G01 X16.8247 Y61.1045
G01 X16.8071 Y61.0502
G01 X16.8061 Y61.0425
G01 X16.8020 Y61.0206
G01 X16.7998 Y61.0106
G01 X16.7968 Y60.9553
G01 X16.7945 Y60.9305
G01 X16.7942 Y60.9055
G01 X16.7913 Y60.8502
G01 X16.7926 Y60.8400
G01 X16.7943 Y60.8178
G01 X16.7945 Y60.8105
G01 X16.7943 Y58.9203
G01 X16.7934 Y58.9103
G01 X16.7923 Y58.9037
G01 X16.7796 Y58.8450
G01 X16.7749 Y58.8301
G01 X16.7699 Y58.8187
G01 X16.7621 Y58.8052
G01 X16.7546 Y58.7952
G01 X16.7061 Y58.7391
G01 X16.6999 Y58.7325
G01 X16.6906 Y58.7241
G01 X16.6805 Y58.7167
G01 X16.6669 Y58.7089
G01 X16.6555 Y58.7039
G01 X16.6468 Y58.7011
G01 X16.5759 Y58.6803
G01 X16.5613 Y58.6773
G01 X16.5465 Y58.6760
G01 X14.7089 Y58.6760
G01 X14.7015 Y58.6762
G01 X14.6794 Y58.6779
G01 X14.6692 Y58.6792
G01 X14.6139 Y58.6763
G01 X14.5889 Y58.6760
G01 X14.5640 Y58.6737
G01 X14.5087 Y58.6707
G01 X14.4987 Y58.6685
G01 X14.4768 Y58.6644
G01 X14.4691 Y58.6634
G01 X14.4149 Y58.6458
G01 X14.3535 Y58.6292
G01 X14.3464 Y58.6258
G01 X14.3259 Y58.6173
G01 X14.3163 Y58.6138
G01 X14.2611 Y58.5821
G01 X14.2103 Y58.5562
G01 X14.2041 Y58.5515
G01 X14.1858 Y58.5389
G01 X14.1771 Y58.5334
G01 X14.1359 Y58.4964
G01 X14.1167 Y58.4804
G01 X14.0989 Y58.4630
G01 X14.0577 Y58.4259
G01 X14.0513 Y58.4178
G01 X14.0369 Y58.4009
G01 X14.0318 Y58.3956
G01 X9.6974 Y54.0611
G01 X9.6920 Y54.0560
G01 X9.6751 Y54.0416
G01 X9.6671 Y54.0353
G01 X9.6300 Y53.9941
G01 X9.6125 Y53.9762
G01 X9.5966 Y53.9570
G01 X9.5595 Y53.9158
G01 X9.5541 Y53.9071
G01 X9.5415 Y53.8888
G01 X9.5367 Y53.8827
G01 X9.5108 Y53.8319
G01 X9.4792 Y53.7767
G01 X9.4756 Y53.7670
G01 X9.4671 Y53.7465
G01 X9.4638 Y53.7395
G01 X9.4471 Y53.6781
G01 X9.4295 Y53.6238
G01 X9.4285 Y53.6161
G01 X9.4245 Y53.5942
G01 X9.4222 Y53.5842
G01 X9.4193 Y53.5289
G01 X9.4169 Y53.5041
G01 X9.4167 Y53.4791
G01 X9.4138 Y53.4238
G01 X9.4150 Y53.4136
G01 X9.4167 Y53.3914
G01 X9.4169 Y53.3841
G01 X9.4169 Y52.5488
G01 X9.4163 Y52.5384
G01 X9.4121 Y52.5048
G01 X9.4093 Y52.4897
G01 X9.4048 Y52.4757
G01 X9.3987 Y52.4622
G01 X9.3600 Y52.3966
G01 X9.3533 Y52.3863
G01 X9.3450 Y52.3762
G01 X9.2008 Y52.2179
G01 X9.1198 Y52.0929
G01 X9.1133 Y52.0845
G01 X9.0926 Y52.0600
G01 X9.0841 Y52.0510
G01 X9.0775 Y52.0450
G01 X9.0680 Y52.0378
G01 X9.0605 Y52.0330
G01 X9.0521 Y52.0285
G01 X8.9830 Y51.9948
G01 X8.9683 Y51.9895
G01 X8.9530 Y51.9860
G01 X8.9406 Y51.9847
G01 X8.9249 Y51.9848
G01 X8.8455 Y51.9939
G01 X8.8334 Y51.9962
G01 X8.8214 Y51.9997
G01 X8.8098 Y52.0045
G01 X8.8014 Y52.0088
G01 X8.7934 Y52.0137
G01 X8.7836 Y52.0210
G01 X8.7264 Y52.0679
G01 X8.7199 Y52.0739
G01 X8.7138 Y52.0805
G01 X8.7047 Y52.0922
G01 X8.6029 Y52.2414
G01 X8.4628 Y52.3879
G01 X8.3007 Y52.5097
G01 X8.1209 Y52.6033
G01 X8.0204 Y52.6361
G01 X8.0204 Y52.3609
G01 X8.1010 Y52.3226
G01 X8.1779 Y52.2767
G01 X8.1881 Y52.2699
G01 X8.2600 Y52.2164
G01 X8.3309 Y52.1522
G01 X8.3911 Y52.0859
G01 X8.3989 Y52.0764
G01 X8.4521 Y52.0044
G01 X8.5013 Y51.9223
G01 X8.5397 Y51.8415
G01 X8.5444 Y51.8301
G01 X8.5745 Y51.7458
G01 X8.5977 Y51.6529
G01 X8.6110 Y51.5644
G01 X8.6122 Y51.5522
G01 X8.6164 Y51.4627
G01 X8.6122 Y51.3733
G01 X8.6110 Y51.3611
G01 X8.5977 Y51.2725
G01 X8.5745 Y51.1797
G01 X8.5444 Y51.0953
G01 X8.5397 Y51.0840
G01 X8.5013 Y51.0031
G01 X8.4521 Y50.9211
G01 X8.3989 Y50.8490
G01 X8.3911 Y50.8396
G01 X8.3309 Y50.7733
G01 X8.2600 Y50.7090
G01 X8.1881 Y50.6556
G01 X8.1779 Y50.6488
G01 X8.1010 Y50.6029
G01 X8.0204 Y50.5646
G01 X8.0204 Y50.2875
G01 X8.1760 Y50.3470
G01 X8.3511 Y50.4493
G01 X8.5071 Y50.5788
G01 X8.6398 Y50.7320
G01 X8.6947 Y50.8215
G01 X8.6995 Y50.8289
G01 X8.7054 Y50.8365
G01 X8.7350 Y50.8703
G01 X8.7453 Y50.8808
G01 X8.7523 Y50.8867
G01 X8.7622 Y50.8936
G01 X8.7700 Y50.8982
G01 X8.7806 Y50.9033
G01 X8.8516 Y50.9330
G01 X8.8666 Y50.9374
G01 X8.8758 Y50.9392
G01 X8.8852 Y50.9402
G01 X8.9008 Y50.9404
G01 X8.9160 Y50.9387
G01 X8.9889 Y50.9260
G01 X9.0009 Y50.9229
G01 X9.0127 Y50.9187
G01 X9.0267 Y50.9118
G01 X9.0347 Y50.9068
G01 X9.0422 Y50.9012
G01 X9.0491 Y50.8953
G01 X9.0828 Y50.8643
G01 X9.0937 Y50.8561
G01 X9.1027 Y50.8477
G01 X9.1089 Y50.8409
G01 X9.1145 Y50.8336
G01 X9.2388 Y50.6605
G01 X9.3455 Y50.5542
G01 X9.3521 Y50.5466
G01 X9.3692 Y50.5255
G01 X9.3764 Y50.5156
G01 X9.3812 Y50.5077
G01 X9.3854 Y50.4994
G01 X9.3889 Y50.4909
G01 X9.3919 Y50.4822
G01 X9.4134 Y50.4083
G01 X9.4160 Y50.3937
G01 X9.4169 Y50.3788
G01 X9.4169 Y48.6742
G01 X9.4163 Y48.6613
G01 X9.4116 Y48.6244
G01 X9.4099 Y48.6155
G01 X9.4077 Y48.6069
G01 X9.4037 Y48.5958
G01 X9.4001 Y48.5877
G01 X9.3956 Y48.5794
G01 X9.3600 Y48.5194
G01 X9.3533 Y48.5092
G01 X9.3450 Y48.4991
G01 X9.2008 Y48.3408
G01 X9.1213 Y48.2180
G01 X9.1150 Y48.2094
G01 X9.0926 Y48.1829
G01 X9.0841 Y48.1738
G01 X9.0752 Y48.1660
G01 X9.0655 Y48.1590
G01 X9.0550 Y48.1528
G01 X8.9830 Y48.1176
G01 X8.9713 Y48.1132
G01 X8.9561 Y48.1094
G01 X8.9406 Y48.1076
G01 X8.9249 Y48.1076
G01 X8.8455 Y48.1167
G01 X8.8334 Y48.1190
G01 X8.8243 Y48.1216
G01 X8.8126 Y48.1261
G01 X8.8042 Y48.1301
G01 X8.7934 Y48.1366
G01 X8.7836 Y48.1438
G01 X8.7264 Y48.1908
G01 X8.7157 Y48.2011
G01 X8.7100 Y48.2079
G01 X8.7047 Y48.2151
G01 X8.6029 Y48.3642
G01 X8.4628 Y48.5108
G01 X8.3007 Y48.6325
G01 X8.1209 Y48.7261
G01 X8.0204 Y48.7590
G01 X8.0204 Y48.4838
G01 X8.1010 Y48.4455
G01 X8.1779 Y48.3996
G01 X8.1881 Y48.3927
G01 X8.2600 Y48.3393
G01 X8.3309 Y48.2750
G01 X8.3911 Y48.2088
G01 X8.3989 Y48.1993
G01 X8.4521 Y48.1273
G01 X8.5013 Y48.0452
G01 X8.5397 Y47.9643
G01 X8.5444 Y47.9530
G01 X8.5745 Y47.8686
G01 X8.5977 Y47.7758
G01 X8.6110 Y47.6872
G01 X8.6122 Y47.6750
G01 X8.6164 Y47.5856
G01 X8.6122 Y47.4961
G01 X8.6110 Y47.4839
G01 X8.5977 Y47.3954
G01 X8.5745 Y47.3026
G01 X8.5444 Y47.2182
G01 X8.5397 Y47.2069
G01 X8.5013 Y47.1260
G01 X8.4521 Y47.0439
G01 X8.3989 Y46.9719
G01 X8.3911 Y46.9624
G01 X8.3309 Y46.8962
G01 X8.2600 Y46.8319
G01 X8.1881 Y46.7784
G01 X8.1779 Y46.7716
G01 X8.1010 Y46.7257
G01 X8.0204 Y46.6874
G01 X8.0204 Y46.4104
G01 X8.1760 Y46.4698
G01 X8.3511 Y46.5721
G01 X8.5071 Y46.7016
G01 X8.6398 Y46.8549
G01 X8.6947 Y46.9444
G01 X8.6995 Y46.9517
G01 X8.7054 Y46.9594
G01 X8.7350 Y46.9932
G01 X8.7453 Y47.0037
G01 X8.7523 Y47.0095
G01 X8.7622 Y47.0165
G01 X8.7700 Y47.0211
G01 X8.7806 Y47.0261
G01 X8.8516 Y47.0558
G01 X8.8666 Y47.0603
G01 X8.8758 Y47.0620
G01 X8.8852 Y47.0631
G01 X8.9008 Y47.0633
G01 X8.9160 Y47.0616
G01 X8.9889 Y47.0488
G01 X9.0009 Y47.0458
G01 X9.0127 Y47.0416
G01 X9.0267 Y47.0346
G01 X9.0347 Y47.0297
G01 X9.0422 Y47.0241
G01 X9.0491 Y47.0182
G01 X9.0828 Y46.9872
G01 X9.0937 Y46.9789
G01 X9.1027 Y46.9706
G01 X9.1089 Y46.9637
G01 X9.1145 Y46.9565
G01 X9.2389 Y46.7834
G01 X9.3455 Y46.6771
G01 X9.3521 Y46.6695
G01 X9.3692 Y46.6483
G01 X9.3764 Y46.6384
G01 X9.3812 Y46.6305
G01 X9.3854 Y46.6223
G01 X9.3889 Y46.6138
G01 X9.3919 Y46.6050
G01 X9.4134 Y46.5312
G01 X9.4160 Y46.5165
G01 X9.4169 Y46.5017
G01 X9.4169 Y44.7971
G01 X9.4163 Y44.7841
G01 X9.4116 Y44.7473
G01 X9.4099 Y44.7383
G01 X9.4077 Y44.7298
G01 X9.4037 Y44.7186
G01 X9.4001 Y44.7105
G01 X9.3956 Y44.7023
G01 X9.3600 Y44.6423
G01 X9.3533 Y44.6321
G01 X9.3450 Y44.6220
G01 X9.2008 Y44.4637
G01 X9.1213 Y44.3408
G01 X9.1150 Y44.3323
G01 X9.0926 Y44.3058
G01 X9.0841 Y44.2967
G01 X9.0752 Y44.2888
G01 X9.0655 Y44.2818
G01 X9.0550 Y44.2757
G01 X8.9830 Y44.2405
G01 X8.9713 Y44.2361
G01 X8.9561 Y44.2323
G01 X8.9406 Y44.2304
G01 X8.9249 Y44.2305
G01 X8.8455 Y44.2396
G01 X8.8334 Y44.2419
G01 X8.8243 Y44.2445
G01 X8.8126 Y44.2489
G01 X8.8042 Y44.2530
G01 X8.7934 Y44.2594
G01 X8.7836 Y44.2667
G01 X8.7264 Y44.3136
G01 X8.7157 Y44.3240
G01 X8.7100 Y44.3308
G01 X8.7047 Y44.3379
G01 X8.6029 Y44.4871
G01 X8.4628 Y44.6337
G01 X8.3007 Y44.7554
G01 X8.1209 Y44.8490
G01 X8.0204 Y44.8818
G01 X8.0204 Y44.6066
G01 X8.1010 Y44.5683
G01 X8.1779 Y44.5224
G01 X8.1881 Y44.5156
G01 X8.2600 Y44.4621
G01 X8.3309 Y44.3979
G01 X8.3911 Y44.3316
G01 X8.3989 Y44.3222
G01 X8.4521 Y44.2501
G01 X8.5013 Y44.1681
G01 X8.5397 Y44.0872
G01 X8.5444 Y44.0758
G01 X8.5745 Y43.9915
G01 X8.5977 Y43.8987
G01 X8.6110 Y43.8101
G01 X8.6122 Y43.7979
G01 X8.6164 Y43.7085
G01 X8.6122 Y43.6190
G01 X8.6110 Y43.6068
G01 X8.5977 Y43.5182
G01 X8.5745 Y43.4254
G01 X8.5444 Y43.3411
G01 X8.5397 Y43.3297
G01 X8.5013 Y43.2488
G01 X8.4521 Y43.1668
G01 X8.3989 Y43.0948
G01 X8.3911 Y43.0853
G01 X8.3309 Y43.0190
G01 X8.2600 Y42.9548
G01 X8.1881 Y42.9013
G01 X8.1779 Y42.8945
G01 X8.1010 Y42.8486
G01 X8.0204 Y42.8103
G01 X8.0204 Y42.5333
G01 X8.1760 Y42.5927
G01 X8.3511 Y42.6950
G01 X8.5071 Y42.8245
G01 X8.6398 Y42.9777
G01 X8.6947 Y43.0673
G01 X8.6995 Y43.0746
G01 X8.7054 Y43.0822
G01 X8.7350 Y43.1160
G01 X8.7453 Y43.1266
G01 X8.7523 Y43.1324
G01 X8.7622 Y43.1394
G01 X8.7700 Y43.1439
G01 X8.7806 Y43.1490
G01 X8.8516 Y43.1787
G01 X8.8666 Y43.1831
G01 X8.8758 Y43.1849
G01 X8.8852 Y43.1860
G01 X8.9008 Y43.1862
G01 X8.9160 Y43.1844
G01 X8.9889 Y43.1717
G01 X9.0009 Y43.1687
G01 X9.0127 Y43.1644
G01 X9.0267 Y43.1575
G01 X9.0347 Y43.1525
G01 X9.0422 Y43.1470
G01 X9.0491 Y43.1411
G01 X9.0828 Y43.1100
G01 X9.0937 Y43.1018
G01 X9.1027 Y43.0934
G01 X9.1089 Y43.0866
G01 X9.1145 Y43.0793
G01 X9.2389 Y42.9063
G01 X9.3455 Y42.7999
G01 X9.3521 Y42.7923
G01 X9.3692 Y42.7712
G01 X9.3764 Y42.7613
G01 X9.3812 Y42.7534
G01 X9.3854 Y42.7452
G01 X9.3889 Y42.7367
G01 X9.3919 Y42.7279
G01 X9.4134 Y42.6540
G01 X9.4160 Y42.6394
G01 X9.4169 Y42.6246
G01 X9.4169 Y40.9199
G01 X9.4163 Y40.9070
G01 X9.4116 Y40.8702
G01 X9.4099 Y40.8612
G01 X9.4077 Y40.8526
G01 X9.4037 Y40.8415
G01 X9.4001 Y40.8334
G01 X9.3956 Y40.8252
G01 X9.3600 Y40.7651
G01 X9.3533 Y40.7549
G01 X9.3450 Y40.7448
G01 X9.2008 Y40.5865
G01 X9.1213 Y40.4637
G01 X9.1150 Y40.4552
G01 X9.0926 Y40.4286
G01 X9.0841 Y40.4196
G01 X9.0752 Y40.4117
G01 X9.0655 Y40.4047
G01 X9.0550 Y40.3985
G01 X8.9830 Y40.3633
G01 X8.9713 Y40.3590
G01 X8.9561 Y40.3552
G01 X8.9406 Y40.3533
G01 X8.9249 Y40.3534
G01 X8.8455 Y40.3624
G01 X8.8334 Y40.3648
G01 X8.8243 Y40.3673
G01 X8.8126 Y40.3718
G01 X8.8042 Y40.3759
G01 X8.7934 Y40.3823
G01 X8.7836 Y40.3896
G01 X8.7264 Y40.4365
G01 X8.7157 Y40.4468
G01 X8.7100 Y40.4536
G01 X8.7047 Y40.4608
G01 X8.6029 Y40.6100
G01 X8.4628 Y40.7565
G01 X8.3007 Y40.8783
G01 X8.1209 Y40.9719
G01 X8.0204 Y41.0047
G01 X8.0204 Y40.7295
G01 X8.1010 Y40.6912
G01 X8.1779 Y40.6453
G01 X8.1881 Y40.6385
G01 X8.2600 Y40.5850
G01 X8.3309 Y40.5207
G01 X8.3911 Y40.4545
G01 X8.3989 Y40.4450
G01 X8.4521 Y40.3730
G01 X8.5013 Y40.2909
G01 X8.5397 Y40.2100
G01 X8.5444 Y40.1987
G01 X8.5745 Y40.1143
G01 X8.5977 Y40.0215
G01 X8.6110 Y39.9330
G01 X8.6122 Y39.9208
G01 X8.6164 Y39.8313
G01 X8.6122 Y39.7419
G01 X8.6110 Y39.7297
G01 X8.5977 Y39.6411
G01 X8.5745 Y39.5483
G01 X8.5444 Y39.4639
G01 X8.5397 Y39.4526
G01 X8.5013 Y39.3717
G01 X8.4521 Y39.2896
G01 X8.3989 Y39.2176
G01 X8.3911 Y39.2081
G01 X8.3309 Y39.1419
G01 X8.2600 Y39.0776
G01 X8.1881 Y39.0242
G01 X8.1779 Y39.0173
G01 X8.1010 Y38.9714
G01 X8.0204 Y38.9331
G01 X8.0204 Y38.6561
G01 X8.1760 Y38.7155
G01 X8.3511 Y38.8178
G01 X8.5071 Y38.9474
G01 X8.6398 Y39.1006
G01 X8.6947 Y39.1901
G01 X8.6995 Y39.1974
G01 X8.7054 Y39.2051
G01 X8.7350 Y39.2389
G01 X8.7453 Y39.2494
G01 X8.7523 Y39.2553
G01 X8.7622 Y39.2622
G01 X8.7700 Y39.2668
G01 X8.7806 Y39.2719
G01 X8.8516 Y39.3016
G01 X8.8666 Y39.3060
G01 X8.8758 Y39.3078
G01 X8.8852 Y39.3088
G01 X8.9008 Y39.3090
G01 X8.9160 Y39.3073
G01 X8.9889 Y39.2945
G01 X9.0009 Y39.2915
G01 X9.0127 Y39.2873
G01 X9.0267 Y39.2804
G01 X9.0347 Y39.2754
G01 X9.0422 Y39.2698
G01 X9.0491 Y39.2639
G01 X9.0828 Y39.2329
G01 X9.0937 Y39.2247
G01 X9.1027 Y39.2163
G01 X9.1089 Y39.2094
G01 X9.1145 Y39.2022
G01 X9.2389 Y39.0291
G01 X9.3455 Y38.9228
G01 X9.3521 Y38.9152
G01 X9.3692 Y38.8941
G01 X9.3764 Y38.8841
G01 X9.3812 Y38.8762
G01 X9.3854 Y38.8680
G01 X9.3889 Y38.8595
G01 X9.3919 Y38.8508
G01 X9.4134 Y38.7769
G01 X9.4160 Y38.7623
G01 X9.4169 Y38.7474
G01 X9.4169 Y37.0428
G01 X9.4163 Y37.0298
G01 X9.4116 Y36.9930
G01 X9.4099 Y36.9841
G01 X9.4077 Y36.9755
G01 X9.4048 Y36.9671
G01 X9.4001 Y36.9563
G01 X9.3956 Y36.9480
G01 X9.3600 Y36.8880
G01 X9.3533 Y36.8778
G01 X9.3450 Y36.8677
G01 X9.2008 Y36.7094
G01 X9.1213 Y36.5866
G01 X9.1150 Y36.5780
G01 X9.0926 Y36.5515
G01 X9.0841 Y36.5424
G01 X9.0752 Y36.5345
G01 X9.0655 Y36.5276
G01 X9.0550 Y36.5214
G01 X8.9830 Y36.4862
G01 X8.9713 Y36.4818
G01 X8.9561 Y36.4780
G01 X8.9406 Y36.4761
G01 X8.9249 Y36.4762
G01 X8.8455 Y36.4853
G01 X8.8334 Y36.4876
G01 X8.8243 Y36.4902
G01 X8.8126 Y36.4946
G01 X8.8042 Y36.4987
G01 X8.7934 Y36.5052
G01 X8.7836 Y36.5124
G01 X8.7264 Y36.5593
G01 X8.7158 Y36.5697
G01 X8.7100 Y36.5765
G01 X8.7047 Y36.5837
G01 X8.6029 Y36.7328
G01 X8.4628 Y36.8794
G01 X8.3007 Y37.0011
G01 X8.1209 Y37.0947
G01 X8.0204 Y37.1276
G01 X8.0204 Y36.8523
G01 X8.1010 Y36.8140
G01 X8.1779 Y36.7681
G01 X8.1881 Y36.7613
G01 X8.2600 Y36.7079
G01 X8.3309 Y36.6436
G01 X8.3911 Y36.5774
G01 X8.3989 Y36.5679
G01 X8.4521 Y36.4959
G01 X8.4983 Y36.4191
G01 X8.5041 Y36.4083
G01 X8.5422 Y36.3273
G01 X8.5745 Y36.2372
G01 X8.5964 Y36.1504
G01 X8.5987 Y36.1383
G01 X8.6117 Y36.0497
G01 X8.6164 Y35.9542
G01 X8.6117 Y35.8586
G01 X8.5987 Y35.7700
G01 X8.5964 Y35.7580
G01 X8.5745 Y35.6711
G01 X8.5422 Y35.5811
G01 X8.5041 Y35.5000
G01 X8.4983 Y35.4892
G01 X8.4521 Y35.4125
G01 X8.3989 Y35.3405
G01 X8.3911 Y35.3310
G01 X8.3309 Y35.2647
G01 X8.2600 Y35.2005
G01 X8.1881 Y35.1470
G01 X8.1779 Y35.1402
G01 X8.1010 Y35.0943
G01 X8.0204 Y35.0560
G01 X8.0204 Y34.7790
G01 X8.1760 Y34.8384
G01 X8.3511 Y34.9407
G01 X8.5071 Y35.0702
G01 X8.6398 Y35.2234
G01 X8.6961 Y35.3152
G01 X8.7054 Y35.3279
G01 X8.7350 Y35.3618
G01 X8.7431 Y35.3702
G01 X8.7499 Y35.3762
G01 X8.7572 Y35.3817
G01 X8.7648 Y35.3867
G01 X8.7727 Y35.3911
G01 X8.7806 Y35.3947
G01 X8.8461 Y35.4222
G01 X8.8605 Y35.4273
G01 X8.8727 Y35.4301
G01 X8.8883 Y35.4319
G01 X8.9008 Y35.4319
G01 X8.9160 Y35.4302
G01 X8.9918 Y35.4168
G01 X9.0068 Y35.4124
G01 X9.0212 Y35.4062
G01 X9.0321 Y35.4000
G01 X9.0447 Y35.3907
G01 X9.0828 Y35.3557
G01 X9.0889 Y35.3514
G01 X9.0960 Y35.3455
G01 X9.1069 Y35.3346
G01 X9.1145 Y35.3250
G01 X9.2389 Y35.1520
G01 X9.3455 Y35.0457
G01 X9.3521 Y35.0381
G01 X9.3692 Y35.0169
G01 X9.3747 Y35.0095
G01 X9.3797 Y35.0018
G01 X9.3841 Y34.9937
G01 X9.3900 Y34.9795
G01 X9.4119 Y34.9055
G01 X9.4141 Y34.8969
G01 X9.4157 Y34.8881
G01 X9.4166 Y34.8792
G01 X9.4169 Y34.8703
G01 X9.4169 Y33.2027
G01 X9.4162 Y33.1926
G01 X9.4133 Y33.1659
G01 X9.4120 Y33.1568
G01 X9.4092 Y33.1448
G01 X9.4041 Y33.1304
G01 X9.3988 Y33.1193
G01 X9.3633 Y33.0544
G01 X9.3551 Y33.0420
G01 X9.3455 Y33.0307
G01 X7.0536 Y30.7387
G01 X7.0483 Y30.7337
G01 X7.0314 Y30.7192
G01 X7.0233 Y30.7129
G01 X6.9862 Y30.6717
G01 X6.9688 Y30.6539
G01 X6.9528 Y30.6346
G01 X6.9158 Y30.5935
G01 X6.9103 Y30.5848
G01 X6.8977 Y30.5665
G01 X6.8930 Y30.5603
G01 X6.8671 Y30.5095
G01 X6.8354 Y30.4543
G01 X6.8319 Y30.4447
G01 X6.8234 Y30.4241
G01 X6.8200 Y30.4171
G01 X6.8034 Y30.3557
G01 X6.7858 Y30.3015
G01 X6.7847 Y30.2937
G01 X6.7807 Y30.2719
G01 X6.7784 Y30.2619
G01 X6.7755 Y30.2066
G01 X6.7732 Y30.1817
G01 X6.7729 Y30.1567
G01 X6.7700 Y30.1014
G01 X6.7712 Y30.0912
G01 X6.7730 Y30.0691
G01 X6.7732 Y30.0617
G01 X6.7732 Y16.2192
G01 X6.7730 Y16.2119
G01 X6.7712 Y16.1897
G01 X6.7700 Y16.1795
G00 Z2.0000
G00 X7.0315 Y16.1362
G01 F60.00
G01 Z-0.0500
G01 F120.00
G01 X7.0339 Y16.0897
G01 X7.0412 Y16.0406
G01 X7.0533 Y15.9924
G01 X7.0700 Y15.9456
G01 X7.0913 Y15.9007
G01 X7.1168 Y15.8581
G01 X7.1464 Y15.8182
G01 X7.1798 Y15.7814
G01 X15.3603 Y7.6008
G01 X15.3971 Y7.5675
G01 X15.4370 Y7.5379
G01 X15.4796 Y7.5123
G01 X15.5245 Y7.4911
G01 X15.5713 Y7.4744
G01 X15.6195 Y7.4623
G01 X15.6686 Y7.4550
G01 X15.7121 Y7.4527
G01 X54.2895 Y7.4526
G01 X54.3391 Y7.4550
G01 X54.3883 Y7.4623
G01 X54.4305 Y7.4727
G01 X54.4423 Y7.4763
G01 X54.4775 Y7.4889
G01 X54.4888 Y7.4936
G01 X54.5281 Y7.5123
G01 X54.5707 Y7.5379
G01 X54.6106 Y7.5675
G01 X54.6452 Y7.5987
G01 X57.1118 Y10.0651
G01 X72.9175 Y10.0651
G01 X72.9671 Y10.0676
G01 X73.0102 Y10.0738
G01 X73.0222 Y10.0762
G01 X73.0644 Y10.0869
G01 X73.1055 Y10.1015
G01 X73.1168 Y10.1062
G01 X73.1561 Y10.1249
G01 X73.1935 Y10.1472
G01 X73.2037 Y10.1540
G01 X73.2386 Y10.1800
G01 X73.2754 Y10.2134
G01 X75.6419 Y12.5800
G01 X75.6691 Y12.6100
G01 X75.6769 Y12.6194
G01 X75.7027 Y12.6545
G01 X75.7253 Y12.6918
G01 X75.7310 Y12.7026
G01 X75.7495 Y12.7420
G01 X75.7663 Y12.7888
G01 X75.7770 Y12.8310
G01 X75.7794 Y12.8430
G01 X75.7856 Y12.8861
G01 X75.7881 Y12.9357
G01 X75.7881 Y19.5159
G01 X75.7856 Y19.5655
G01 X75.7783 Y19.6146
G01 X75.7663 Y19.6628
G01 X75.7517 Y19.7038
G01 X75.7470 Y19.7152
G01 X75.7283 Y19.7545
G01 X75.7027 Y19.7971
G01 X75.6732 Y19.8370
G01 X75.6398 Y19.8738
G01 X69.8180 Y25.6955
G01 X69.7812 Y25.7289
G01 X69.7413 Y25.7585
G01 X69.6987 Y25.7840
G01 X69.6538 Y25.8053
G01 X69.6129 Y25.8201
G01 X69.6011 Y25.8236
G01 X69.5649 Y25.8327
G01 X69.5528 Y25.8351
G01 X69.5097 Y25.8414
G01 X69.4601 Y25.8438
G01 X57.0448 Y25.8438
G01 X56.1160 Y26.7727
G01 X56.1160 Y27.3580
G01 X56.1463 Y27.3762
G01 X56.1540 Y27.3812
G01 X56.2259 Y27.4346
G01 X56.2330 Y27.4405
G01 X56.2970 Y27.4986
G01 X56.3035 Y27.5052
G01 X56.3635 Y27.5716
G01 X56.4187 Y27.6460
G01 X56.4238 Y27.6537
G01 X56.4697 Y27.7306
G01 X56.5106 Y27.8170
G01 X56.5428 Y27.9071
G01 X56.5654 Y27.9970
G01 X56.5671 Y28.0060
G01 X56.5793 Y28.0885
G01 X56.5805 Y28.1007
G01 X56.5848 Y28.1902
G01 X56.5801 Y28.2857
G01 X56.5661 Y28.3804
G01 X56.5444 Y28.4673
G01 X56.5409 Y28.4790
G01 X56.5128 Y28.5576
G01 X56.5081 Y28.5689
G01 X56.4697 Y28.6498
G01 X56.4238 Y28.7267
G01 X56.4169 Y28.7369
G01 X56.3673 Y28.8039
G01 X56.3595 Y28.8133
G01 X56.2992 Y28.8796
G01 X56.2283 Y28.9439
G01 X56.1515 Y29.0008
G01 X56.0747 Y29.0470
G01 X56.0639 Y29.0528
G01 X55.9885 Y29.0885
G01 X55.9772 Y29.0932
G01 X55.8928 Y29.1232
G01 X55.8000 Y29.1464
G01 X55.7114 Y29.1597
G01 X55.6992 Y29.1609
G01 X55.6098 Y29.1652
G01 X55.5173 Y29.1607
G01 X55.5081 Y29.1597
G01 X55.4196 Y29.1464
G01 X55.3268 Y29.1232
G01 X55.2367 Y29.0909
G01 X55.1557 Y29.0528
G01 X55.1448 Y29.0470
G01 X55.0733 Y29.0041
G01 X55.0631 Y28.9973
G01 X54.9913 Y28.9439
G01 X54.9248 Y28.8838
G01 X54.9161 Y28.8752
G01 X54.8561 Y28.8087
G01 X54.7991 Y28.7318
G01 X54.7499 Y28.6498
G01 X54.7090 Y28.5633
G01 X54.6768 Y28.4732
G01 X54.6549 Y28.3864
G01 X54.6525 Y28.3743
G01 X54.6402 Y28.2918
G01 X54.6390 Y28.2796
G01 X54.6348 Y28.1902
G01 X54.6390 Y28.1007
G01 X54.6402 Y28.0885
G01 X54.6535 Y28.0000
G01 X54.6759 Y27.9101
G01 X54.6787 Y27.9013
G01 X54.7090 Y27.8170
G01 X54.7499 Y27.7306
G01 X54.7991 Y27.6485
G01 X54.8542 Y27.5740
G01 X54.8601 Y27.5670
G01 X54.9204 Y27.5007
G01 X54.9889 Y27.4385
G01 X54.9961 Y27.4327
G01 X55.0656 Y27.3812
G01 X55.0733 Y27.3762
G01 X55.1036 Y27.3580
G01 X55.1036 Y26.5630
G01 X55.1058 Y26.5164
G01 X55.1068 Y26.5073
G01 X55.1133 Y26.4642
G01 X55.1238 Y26.4220
G01 X55.1273 Y26.4102
G01 X55.1421 Y26.3693
G01 X55.1606 Y26.3299
G01 X55.1664 Y26.3190
G01 X55.1889 Y26.2818
G01 X55.2185 Y26.2419
G01 X55.2519 Y26.2051
G01 X56.4794 Y24.9775
G01 X56.5094 Y24.9503
G01 X56.5189 Y24.9425
G01 X56.5539 Y24.9167
G01 X56.5912 Y24.8942
G01 X56.6020 Y24.8884
G01 X56.6415 Y24.8700
G01 X56.6882 Y24.8532
G01 X56.7364 Y24.8411
G01 X56.7795 Y24.8346
G01 X56.7917 Y24.8334
G01 X56.8352 Y24.8314
G01 X69.2504 Y24.8314
G01 X74.7757 Y19.3062
G01 X74.7757 Y13.1454
G01 X72.7078 Y11.0775
G01 X57.1118 Y11.0775
G01 X56.1160 Y12.0733
G01 X56.1160 Y13.1180
G01 X56.1463 Y13.1362
G01 X56.1540 Y13.1412
G01 X56.2235 Y13.1927
G01 X56.2307 Y13.1985
G01 X56.2992 Y13.2607
G01 X56.3595 Y13.3270
G01 X56.3654 Y13.3340
G01 X56.4205 Y13.4085
G01 X56.4697 Y13.4906
G01 X56.5106 Y13.5770
G01 X56.5419 Y13.6642
G01 X56.5444 Y13.6731
G01 X56.5661 Y13.7600
G01 X56.5793 Y13.8485
G01 X56.5805 Y13.8607
G01 X56.5846 Y13.9440
G01 X56.5846 Y13.9563
G01 X56.5801 Y14.0457
G01 X56.5661 Y14.1404
G01 X56.5428 Y14.2332
G01 X56.5106 Y14.3233
G01 X56.4724 Y14.4043
G01 X56.4666 Y14.4151
G01 X56.4205 Y14.4918
G01 X56.3635 Y14.5687
G01 X56.2992 Y14.6396
G01 X56.2330 Y14.6998
G01 X56.2235 Y14.7076
G01 X56.1565 Y14.7573
G01 X56.1463 Y14.7641
G01 X56.0694 Y14.8100
G01 X55.9829 Y14.8509
G01 X55.8928 Y14.8832
G01 X55.8060 Y14.9051
G01 X55.7940 Y14.9075
G01 X55.7114 Y14.9197
G01 X55.6992 Y14.9209
G01 X55.6098 Y14.9252
G01 X55.5173 Y14.9207
G01 X55.5081 Y14.9197
G01 X55.4196 Y14.9064
G01 X55.3268 Y14.8832
G01 X55.2367 Y14.8509
G01 X55.1502 Y14.8100
G01 X55.0681 Y14.7608
G01 X54.9913 Y14.7039
G01 X54.9204 Y14.6396
G01 X54.8601 Y14.5733
G01 X54.8523 Y14.5639
G01 X54.7991 Y14.4918
G01 X54.7499 Y14.4098
G01 X54.7090 Y14.3233
G01 X54.6787 Y14.2390
G01 X54.6751 Y14.2273
G01 X54.6535 Y14.1404
G01 X54.6402 Y14.0518
G01 X54.6390 Y14.0396
G01 X54.6348 Y13.9502
G01 X54.6390 Y13.8607
G01 X54.6402 Y13.8485
G01 X54.6525 Y13.7660
G01 X54.6549 Y13.7540
G01 X54.6768 Y13.6671
G01 X54.7090 Y13.5770
G01 X54.7499 Y13.4906
G01 X54.7958 Y13.4137
G01 X54.8008 Y13.4060
G01 X54.8561 Y13.3316
G01 X54.9161 Y13.2652
G01 X54.9226 Y13.2586
G01 X54.9866 Y13.2005
G01 X54.9937 Y13.1946
G01 X55.0656 Y13.1412
G01 X55.0733 Y13.1362
G01 X55.1036 Y13.1180
G01 X55.1038 Y11.8575
G01 X55.1060 Y11.8140
G01 X55.1123 Y11.7709
G01 X55.1147 Y11.7589
G01 X55.1238 Y11.7226
G01 X55.1273 Y11.7109
G01 X55.1421 Y11.6699
G01 X55.1606 Y11.6305
G01 X55.1664 Y11.6197
G01 X55.1856 Y11.5876
G01 X55.1924 Y11.5774
G01 X55.2185 Y11.5425
G01 X55.2497 Y11.5079
G01 X56.1862 Y10.5713
G01 X54.0798 Y8.4649
G01 X15.9279 Y8.4649
G01 X8.0439 Y16.3490
G01 X8.0439 Y29.9320
G01 X10.5394 Y32.4274
G01 X10.5687 Y32.4596
G01 X10.5765 Y32.4691
G01 X10.6023 Y32.5041
G01 X10.6279 Y32.5468
G01 X10.6491 Y32.5917
G01 X10.6639 Y32.6326
G01 X10.6675 Y32.6443
G01 X10.6779 Y32.6866
G01 X10.6844 Y32.7297
G01 X10.6856 Y32.7419
G01 X10.6876 Y32.7823
G01 X10.6876 Y35.1220
G01 X10.7179 Y35.1402
G01 X10.7256 Y35.1452
G01 X10.7976 Y35.1986
G01 X10.8046 Y35.2045
G01 X10.8687 Y35.2626
G01 X10.8751 Y35.2692
G01 X10.9351 Y35.3356
G01 X10.9886 Y35.4075
G01 X10.9938 Y35.4151
G01 X11.0413 Y35.4946
G01 X11.0797 Y35.5755
G01 X11.0844 Y35.5868
G01 X11.1145 Y35.6711
G01 X11.1364 Y35.7580
G01 X11.1387 Y35.7700
G01 X11.1514 Y35.8556
G01 X11.1522 Y35.8647
G01 X11.1563 Y35.9480
G01 X11.1563 Y35.9603
G01 X11.1517 Y36.0497
G01 X11.1377 Y36.1444
G01 X11.1161 Y36.2313
G01 X11.1125 Y36.2430
G01 X11.0822 Y36.3273
G01 X11.0427 Y36.4111
G01 X11.0383 Y36.4191
G01 X10.9954 Y36.4907
G01 X10.9886 Y36.5009
G01 X10.9351 Y36.5727
G01 X10.8730 Y36.6414
G01 X10.8664 Y36.6478
G01 X10.8046 Y36.7039
G01 X10.7976 Y36.7098
G01 X10.7256 Y36.7631
G01 X10.7179 Y36.7681
G01 X10.6876 Y36.7863
G01 X10.6876 Y38.9992
G01 X10.7179 Y39.0173
G01 X10.7256 Y39.0224
G01 X10.7976 Y39.0757
G01 X10.8046 Y39.0816
G01 X10.8664 Y39.1377
G01 X10.8730 Y39.1441
G01 X10.9311 Y39.2081
G01 X10.9389 Y39.2176
G01 X10.9921 Y39.2896
G01 X11.0398 Y39.3690
G01 X11.0441 Y39.3772
G01 X11.0822 Y39.4582
G01 X11.1125 Y39.5425
G01 X11.1161 Y39.5542
G01 X11.1377 Y39.6411
G01 X11.1510 Y39.7297
G01 X11.1522 Y39.7419
G01 X11.1564 Y39.8313
G01 X11.1522 Y39.9208
G01 X11.1510 Y39.9330
G01 X11.1377 Y40.0215
G01 X11.1161 Y40.1084
G01 X11.1125 Y40.1202
G01 X11.0822 Y40.2044
G01 X11.0441 Y40.2854
G01 X11.0398 Y40.2936
G01 X10.9921 Y40.3730
G01 X10.9389 Y40.4450
G01 X10.9311 Y40.4545
G01 X10.8730 Y40.5185
G01 X10.8664 Y40.5250
G01 X10.8046 Y40.5810
G01 X10.7976 Y40.5869
G01 X10.7256 Y40.6403
G01 X10.7179 Y40.6453
G01 X10.6876 Y40.6634
G01 X10.6876 Y42.8763
G01 X10.7179 Y42.8945
G01 X10.7256 Y42.8995
G01 X10.7976 Y42.9529
G01 X10.8046 Y42.9588
G01 X10.8664 Y43.0148
G01 X10.8730 Y43.0212
G01 X10.9311 Y43.0853
G01 X10.9389 Y43.0948
G01 X10.9921 Y43.1668
G01 X11.0398 Y43.2462
G01 X11.0441 Y43.2543
G01 X11.0822 Y43.3353
G01 X11.1125 Y43.4196
G01 X11.1161 Y43.4313
G01 X11.1377 Y43.5182
G01 X11.1510 Y43.6068
G01 X11.1522 Y43.6190
G01 X11.1564 Y43.7085
G01 X11.1522 Y43.7979
G01 X11.1510 Y43.8101
G01 X11.1377 Y43.8987
G01 X11.1161 Y43.9856
G01 X11.1125 Y43.9973
G01 X11.0822 Y44.0816
G01 X11.0441 Y44.1626
G01 X11.0398 Y44.1708
G01 X10.9921 Y44.2501
G01 X10.9389 Y44.3222
G01 X10.9311 Y44.3316
G01 X10.8730 Y44.3957
G01 X10.8664 Y44.4021
G01 X10.8046 Y44.4581
G01 X10.7976 Y44.4641
G01 X10.7256 Y44.5174
G01 X10.7179 Y44.5224
G01 X10.6876 Y44.5406
G01 X10.6876 Y46.7535
G01 X10.7179 Y46.7716
G01 X10.7256 Y46.7766
G01 X10.7976 Y46.8300
G01 X10.8046 Y46.8359
G01 X10.8664 Y46.8919
G01 X10.8730 Y46.8984
G01 X10.9311 Y46.9624
G01 X10.9389 Y46.9719
G01 X10.9921 Y47.0439
G01 X11.0398 Y47.1233
G01 X11.0441 Y47.1315
G01 X11.0822 Y47.2125
G01 X11.1125 Y47.2967
G01 X11.1161 Y47.3085
G01 X11.1377 Y47.3954
G01 X11.1510 Y47.4839
G01 X11.1522 Y47.4961
G01 X11.1564 Y47.5856
G01 X11.1522 Y47.6750
G01 X11.1510 Y47.6872
G01 X11.1377 Y47.7758
G01 X11.1161 Y47.8627
G01 X11.1125 Y47.8744
G01 X11.0822 Y47.9587
G01 X11.0441 Y48.0397
G01 X11.0398 Y48.0479
G01 X10.9921 Y48.1273
G01 X10.9389 Y48.1993
G01 X10.9311 Y48.2088
G01 X10.8730 Y48.2728
G01 X10.8664 Y48.2793
G01 X10.8046 Y48.3353
G01 X10.7976 Y48.3412
G01 X10.7256 Y48.3945
G01 X10.7179 Y48.3996
G01 X10.6876 Y48.4177
G01 X10.6876 Y50.6306
G01 X10.7179 Y50.6488
G01 X10.7256 Y50.6538
G01 X10.7976 Y50.7071
G01 X10.8046 Y50.7131
G01 X10.8664 Y50.7691
G01 X10.8730 Y50.7755
G01 X10.9311 Y50.8396
G01 X10.9389 Y50.8490
G01 X10.9921 Y50.9211
G01 X11.0398 Y51.0004
G01 X11.0441 Y51.0086
G01 X11.0822 Y51.0896
G01 X11.1125 Y51.1739
G01 X11.1161 Y51.1856
G01 X11.1377 Y51.2725
G01 X11.1510 Y51.3611
G01 X11.1522 Y51.3733
G01 X11.1564 Y51.4627
G01 X11.1522 Y51.5522
G01 X11.1510 Y51.5644
G01 X11.1377 Y51.6529
G01 X11.1161 Y51.7398
G01 X11.1125 Y51.7516
G01 X11.0822 Y51.8358
G01 X11.0441 Y51.9169
G01 X11.0398 Y51.9250
G01 X10.9921 Y52.0044
G01 X10.9389 Y52.0764
G01 X10.9311 Y52.0859
G01 X10.8730 Y52.1500
G01 X10.8664 Y52.1564
G01 X10.8046 Y52.2124
G01 X10.7976 Y52.2183
G01 X10.7256 Y52.2717
G01 X10.7179 Y52.2767
G01 X10.6876 Y52.2949
G01 X10.6876 Y53.2543
G01 X14.8386 Y57.4053
G01 X22.5057 Y57.4053
G01 X22.5478 Y57.3488
G01 X22.6021 Y57.2887
G01 X22.6107 Y57.2801
G01 X22.6661 Y57.2298
G01 X22.6756 Y57.2221
G01 X22.7407 Y57.1740
G01 X22.8154 Y57.1292
G01 X22.8941 Y57.0920
G01 X22.9702 Y57.0646
G01 X22.9819 Y57.0611
G01 X23.0605 Y57.0415
G01 X23.1405 Y57.0295
G01 X23.1527 Y57.0283
G01 X23.2304 Y57.0245
G01 X24.0126 Y57.0245
G01 X24.0964 Y57.0288
G01 X24.1795 Y57.0410
G01 X24.1885 Y57.0429
G01 X24.2611 Y57.0611
G01 X24.2728 Y57.0646
G01 X24.3489 Y57.0920
G01 X24.4276 Y57.1292
G01 X24.4971 Y57.1707
G01 X24.5073 Y57.1775
G01 X24.5722 Y57.2258
G01 X24.6367 Y57.2843
G01 X24.6952 Y57.3488
G01 X24.7435 Y57.4137
G01 X24.7503 Y57.4239
G01 X24.7918 Y57.4934
G01 X24.8265 Y57.5665
G01 X24.8312 Y57.5778
G01 X24.8583 Y57.6540
G01 X24.8781 Y57.7325
G01 X24.8805 Y57.7445
G01 X24.8922 Y57.8246
G01 X24.8963 Y57.9054
G01 X24.8963 Y57.9176
G01 X24.8922 Y57.9984
G01 X24.8805 Y58.0785
G01 X24.8781 Y58.0905
G01 X24.8583 Y58.1690
G01 X24.8312 Y58.2452
G01 X24.8265 Y58.2565
G01 X24.7918 Y58.3296
G01 X24.7470 Y58.4043
G01 X24.6989 Y58.4694
G01 X24.6912 Y58.4789
G01 X24.6367 Y58.5387
G01 X24.5769 Y58.5932
G01 X24.5674 Y58.6009
G01 X24.5023 Y58.6490
G01 X24.4330 Y58.6907
G01 X24.4221 Y58.6965
G01 X24.3489 Y58.7310
G01 X24.2728 Y58.7584
G01 X24.2611 Y58.7619
G01 X24.1885 Y58.7801
G01 X24.1795 Y58.7820
G01 X24.0964 Y58.7942
G01 X24.0126 Y58.7985
G01 X23.2335 Y58.7985
G01 X23.1466 Y58.7942
G01 X23.0665 Y58.7825
G01 X23.0575 Y58.7808
G01 X22.9760 Y58.7603
G01 X22.8941 Y58.7310
G01 X22.8154 Y58.6938
G01 X22.7407 Y58.6490
G01 X22.6708 Y58.5972
G01 X22.6063 Y58.5387
G01 X22.5478 Y58.4742
G01 X22.5057 Y58.4177
G01 X18.0652 Y58.4177
G01 X18.0652 Y60.6807
G01 X21.5991 Y64.2146
G01 X46.4743 Y64.2146
G01 X49.3239 Y61.3650
G01 X49.3561 Y61.3356
G01 X49.3656 Y61.3279
G01 X49.4006 Y61.3020
G01 X49.4405 Y61.2780
G01 X49.4487 Y61.2737
G01 X49.4881 Y61.2553
G01 X49.5291 Y61.2404
G01 X49.5408 Y61.2369
G01 X49.5831 Y61.2265
G01 X49.6261 Y61.2199
G01 X49.6383 Y61.2187
G01 X49.6788 Y61.2168
G01 X51.6346 Y61.2167
G01 X51.0328 Y60.6147
G01 X51.0036 Y60.5823
G01 X50.9741 Y60.5424
G01 X50.9485 Y60.4998
G01 X50.9298 Y60.4605
G01 X50.9261 Y60.4521
G01 X50.9105 Y60.4082
G01 X50.8985 Y60.3600
G01 X50.8912 Y60.3108
G01 X50.8888 Y60.2643
G01 X50.8887 Y59.2885
G01 X50.5449 Y59.2885
G01 X50.5327 Y59.2879
G01 X50.5205 Y59.2861
G01 X50.5116 Y59.2839
G01 X50.5028 Y59.2812
G01 X50.4943 Y59.2778
G01 X50.4860 Y59.2737
G01 X50.4781 Y59.2691
G01 X50.4705 Y59.2639
G01 X50.4587 Y59.2540
G01 X50.4483 Y59.2428
G01 X50.4427 Y59.2355
G01 X50.4377 Y59.2277
G01 X50.4333 Y59.2197
G01 X50.4294 Y59.2113
G01 X50.4245 Y59.1968
G01 X50.4213 Y59.1818
G01 X50.4203 Y59.1727
G01 X50.4199 Y59.1635
G01 X50.4201 Y57.4573
G01 X50.4213 Y57.4451
G01 X50.4237 Y57.4331
G01 X50.4262 Y57.4243
G01 X50.4307 Y57.4128
G01 X50.4362 Y57.4019
G01 X50.4410 Y57.3940
G01 X50.4483 Y57.3842
G01 X50.4565 Y57.3751
G01 X50.4656 Y57.3668
G01 X50.4755 Y57.3595
G01 X50.4833 Y57.3547
G01 X50.4943 Y57.3492
G01 X50.5057 Y57.3448
G01 X50.5146 Y57.3422
G01 X50.5236 Y57.3403
G01 X50.5357 Y57.3388
G01 X50.5449 Y57.3385
G01 X52.2480 Y57.3385
G01 X52.2602 Y57.3394
G01 X52.2753 Y57.3422
G01 X52.2899 Y57.3469
G01 X52.3039 Y57.3532
G01 X52.3169 Y57.3613
G01 X52.3289 Y57.3709
G01 X52.3396 Y57.3818
G01 X52.3489 Y57.3940
G01 X52.3537 Y57.4019
G01 X52.3579 Y57.4100
G01 X52.3616 Y57.4185
G01 X52.3646 Y57.4272
G01 X52.3669 Y57.4361
G01 X52.3686 Y57.4451
G01 X52.3696 Y57.4543
G01 X52.3699 Y57.4635
G01 X52.3699 Y59.1635
G01 X52.3693 Y59.1757
G01 X52.3681 Y59.1848
G01 X52.3662 Y59.1938
G01 X52.3636 Y59.2027
G01 X52.3604 Y59.2113
G01 X52.3566 Y59.2197
G01 X52.3521 Y59.2277
G01 X52.3471 Y59.2355
G01 X52.3416 Y59.2428
G01 X52.3355 Y59.2497
G01 X52.3289 Y59.2561
G01 X52.3218 Y59.2620
G01 X52.3144 Y59.2674
G01 X52.3065 Y59.2722
G01 X52.2984 Y59.2765
G01 X52.2899 Y59.2801
G01 X52.2812 Y59.2831
G01 X52.2723 Y59.2854
G01 X52.2572 Y59.2879
G01 X52.2449 Y59.2885
G01 X51.9011 Y59.2885
G01 X51.9011 Y60.0515
G01 X53.0663 Y61.2167
G01 X61.4957 Y61.2167
G01 X61.4957 Y55.8878
G01 X58.9371 Y53.3292
G01 X56.3332 Y53.3292
G01 X56.2867 Y53.3268
G01 X56.2376 Y53.3195
G01 X56.1894 Y53.3074
G01 X56.1483 Y53.2929
G01 X56.1370 Y53.2882
G01 X56.0977 Y53.2694
G01 X56.0551 Y53.2439
G01 X56.0152 Y53.2143
G01 X55.9806 Y53.1831
G01 X54.5088 Y51.7113
G01 X54.4754 Y51.6745
G01 X54.4494 Y51.6396
G01 X54.4425 Y51.6294
G01 X54.4203 Y51.5920
G01 X54.3990 Y51.5471
G01 X54.3842 Y51.5062
G01 X54.3807 Y51.4944
G01 X54.3716 Y51.4581
G01 X54.3697 Y51.4491
G01 X54.3630 Y51.4030
G01 X54.3606 Y51.3565
G01 X54.3605 Y50.8540
G01 X54.3302 Y50.8358
G01 X54.3225 Y50.8308
G01 X54.2506 Y50.7774
G01 X54.2435 Y50.7715
G01 X54.1817 Y50.7155
G01 X54.1751 Y50.7091
G01 X54.1130 Y50.6404
G01 X54.0596 Y50.5685
G01 X54.0527 Y50.5583
G01 X54.0099 Y50.4868
G01 X54.0054 Y50.4787
G01 X53.9659 Y50.3949
G01 X53.9356 Y50.3107
G01 X53.9321 Y50.2989
G01 X53.9104 Y50.2120
G01 X53.8972 Y50.1235
G01 X53.8959 Y50.1113
G01 X53.8917 Y50.0218
G01 X53.8961 Y49.9293
G01 X53.8972 Y49.9202
G01 X53.9104 Y49.8316
G01 X53.9321 Y49.7447
G01 X53.9356 Y49.7330
G01 X53.9637 Y49.6544
G01 X53.9684 Y49.6431
G01 X54.0068 Y49.5622
G01 X54.0560 Y49.4801
G01 X54.1130 Y49.4033
G01 X54.1730 Y49.3368
G01 X54.1817 Y49.3282
G01 X54.2435 Y49.2721
G01 X54.2530 Y49.2644
G01 X54.3250 Y49.2111
G01 X54.4071 Y49.1619
G01 X54.4936 Y49.1210
G01 X54.5779 Y49.0907
G01 X54.5896 Y49.0872
G01 X54.6705 Y49.0669
G01 X54.6795 Y49.0650
G01 X54.7711 Y49.0515
G01 X54.8606 Y49.0470
G01 X54.8728 Y49.0470
G01 X54.9562 Y49.0511
G01 X54.9684 Y49.0523
G01 X55.0569 Y49.0656
G01 X55.1497 Y49.0888
G01 X55.2398 Y49.1210
G01 X55.3208 Y49.1592
G01 X55.3317 Y49.1650
G01 X55.4032 Y49.2079
G01 X55.4134 Y49.2147
G01 X55.4852 Y49.2681
G01 X55.5561 Y49.3324
G01 X55.6164 Y49.3986
G01 X55.6242 Y49.4081
G01 X55.6774 Y49.4801
G01 X55.7251 Y49.5595
G01 X55.7293 Y49.5677
G01 X55.7675 Y49.6487
G01 X55.7978 Y49.7330
G01 X55.8014 Y49.7447
G01 X55.8216 Y49.8256
G01 X55.8240 Y49.8377
G01 X55.8370 Y49.9263
G01 X55.8417 Y50.0218
G01 X55.8370 Y50.1174
G01 X55.8240 Y50.2060
G01 X55.8223 Y50.2150
G01 X55.7997 Y50.3049
G01 X55.7675 Y50.3949
G01 X55.7266 Y50.4814
G01 X55.6807 Y50.5583
G01 X55.6757 Y50.5660
G01 X55.6204 Y50.6404
G01 X55.5604 Y50.7068
G01 X55.5539 Y50.7134
G01 X55.4899 Y50.7715
G01 X55.4828 Y50.7774
G01 X55.4109 Y50.8308
G01 X55.4032 Y50.8358
G01 X55.3729 Y50.8540
G01 X55.3729 Y51.1437
G01 X56.5460 Y52.3168
G01 X59.1499 Y52.3168
G01 X59.1903 Y52.3188
G01 X59.2025 Y52.3200
G01 X59.2456 Y52.3265
G01 X59.2878 Y52.3370
G01 X59.2996 Y52.3405
G01 X59.3405 Y52.3553
G01 X59.3854 Y52.3766
G01 X59.4228 Y52.3988
G01 X59.4330 Y52.4057
G01 X59.4679 Y52.4317
G01 X59.5047 Y52.4651
G01 X62.3598 Y55.3202
G01 X62.3932 Y55.3570
G01 X62.4193 Y55.3919
G01 X62.4245 Y55.3995
G01 X62.4483 Y55.4395
G01 X62.4671 Y55.4788
G01 X62.4718 Y55.4901
G01 X62.4863 Y55.5312
G01 X62.4970 Y55.5734
G01 X62.4994 Y55.5854
G01 X62.5057 Y55.6285
G01 X62.5081 Y55.6750
G01 X62.5081 Y61.2167
G01 X66.3649 Y61.2167
G01 X67.6732 Y59.9085
G01 X67.7078 Y59.8773
G01 X67.7477 Y59.8477
G01 X67.7903 Y59.8221
G01 X67.8296 Y59.8034
G01 X67.8409 Y59.7987
G01 X67.8820 Y59.7842
G01 X67.9302 Y59.7721
G01 X67.9793 Y59.7648
G01 X68.0258 Y59.7624
G01 X70.4525 Y59.7624
G01 X70.4655 Y59.7356
G01 X70.5175 Y59.6487
G01 X70.5225 Y59.6410
G01 X70.5866 Y59.5549
G01 X70.6565 Y59.4775
G01 X70.6629 Y59.4709
G01 X70.7425 Y59.3989
G01 X70.8312 Y59.3332
G01 X70.9259 Y59.2764
G01 X71.0257 Y59.2292
G01 X71.1296 Y59.1920
G01 X71.2367 Y59.1652
G01 X71.3459 Y59.1490
G01 X71.4531 Y59.1436
G01 X71.4623 Y59.1437
G01 X71.5665 Y59.1490
G01 X71.6727 Y59.1646
G01 X71.6817 Y59.1665
G01 X71.7798 Y59.1911
G01 X71.8080 Y59.2009
G01 X73.7537 Y57.2552
G01 X73.7537 Y55.4591
G01 X73.7410 Y55.4508
G01 X73.6731 Y55.4002
G01 X73.6102 Y55.3435
G01 X73.6016 Y55.3348
G01 X73.5448 Y55.2720
G01 X73.4943 Y55.2041
G01 X73.4875 Y55.1939
G01 X73.4441 Y55.1212
G01 X73.4078 Y55.0448
G01 X73.4031 Y55.0335
G01 X73.3747 Y54.9537
G01 X73.3540 Y54.8716
G01 X73.3516 Y54.8596
G01 X73.3393 Y54.7759
G01 X73.3350 Y54.6913
G01 X73.3350 Y54.6791
G01 X73.3393 Y54.5945
G01 X73.3516 Y54.5108
G01 X73.3540 Y54.4988
G01 X73.3747 Y54.4167
G01 X73.4053 Y54.3312
G01 X73.4413 Y54.2546
G01 X73.4471 Y54.2438
G01 X73.4908 Y54.1713
G01 X73.5448 Y54.0984
G01 X73.6016 Y54.0356
G01 X73.6102 Y54.0269
G01 X73.6731 Y53.9702
G01 X73.7460 Y53.9161
G01 X73.8185 Y53.8724
G01 X73.8293 Y53.8667
G01 X73.9003 Y53.8331
G01 X73.9087 Y53.8295
G01 X73.9914 Y53.8000
G01 X74.0794 Y53.7780
G01 X74.1692 Y53.7647
G01 X74.2537 Y53.7604
G01 X74.2660 Y53.7604
G01 X74.3444 Y53.7642
G01 X74.3566 Y53.7654
G01 X74.4403 Y53.7780
G01 X74.5284 Y53.8000
G01 X74.6139 Y53.8306
G01 X74.6959 Y53.8694
G01 X74.7738 Y53.9161
G01 X74.8418 Y53.9664
G01 X74.8513 Y53.9742
G01 X74.9139 Y54.0311
G01 X74.9709 Y54.0937
G01 X74.9787 Y54.1032
G01 X75.0254 Y54.1663
G01 X75.0338 Y54.1790
G01 X76.7484 Y54.1790
G01 X77.6020 Y53.3255
G01 X77.6366 Y53.2943
G01 X77.6765 Y53.2647
G01 X77.7191 Y53.2392
G01 X77.7584 Y53.2204
G01 X77.7697 Y53.2157
G01 X77.8108 Y53.2012
G01 X77.8590 Y53.1891
G01 X77.9081 Y53.1818
G01 X77.9547 Y53.1794
G01 X79.0076 Y53.1794
G01 X79.0596 Y53.0921
G01 X79.0664 Y53.0819
G01 X79.1259 Y53.0020
G01 X79.1969 Y52.9237
G01 X79.2752 Y52.8527
G01 X79.3551 Y52.7932
G01 X79.3653 Y52.7864
G01 X79.4455 Y52.7383
G01 X79.4536 Y52.7339
G01 X79.5464 Y52.6901
G01 X79.6402 Y52.6564
G01 X79.6519 Y52.6528
G01 X79.7426 Y52.6301
G01 X79.7516 Y52.6282
G01 X79.8532 Y52.6133
G01 X79.9527 Y52.6082
G01 X80.0569 Y52.6081
G01 X80.1533 Y52.6128
G01 X80.1655 Y52.6140
G01 X80.2640 Y52.6288
G01 X80.3607 Y52.6528
G01 X80.3724 Y52.6564
G01 X80.4661 Y52.6901
G01 X80.5562 Y52.7325
G01 X80.5671 Y52.7383
G01 X80.6524 Y52.7897
G01 X80.7325 Y52.8489
G01 X80.7420 Y52.8567
G01 X80.8157 Y52.9237
G01 X80.8827 Y52.9974
G01 X80.8905 Y53.0069
G01 X80.9497 Y53.0869
G01 X81.0041 Y53.1776
G01 X81.0468 Y53.2676
G01 X81.0515 Y53.2790
G01 X81.0849 Y53.3728
G01 X81.1092 Y53.4694
G01 X81.1116 Y53.4814
G01 X81.1261 Y53.5800
G01 X81.1313 Y53.6856
G01 X81.1261 Y53.7912
G01 X81.1116 Y53.8897
G01 X81.1092 Y53.9018
G01 X81.0849 Y53.9984
G01 X81.0515 Y54.0922
G01 X81.0468 Y54.1035
G01 X81.0055 Y54.1908
G01 X81.0010 Y54.1988
G01 X80.9530 Y54.2790
G01 X80.9462 Y54.2892
G01 X80.8867 Y54.3691
G01 X80.8199 Y54.4430
G01 X80.8113 Y54.4517
G01 X80.7373 Y54.5185
G01 X80.6574 Y54.5779
G01 X80.6472 Y54.5848
G01 X80.5617 Y54.6358
G01 X80.4717 Y54.6786
G01 X80.4604 Y54.6833
G01 X80.3666 Y54.7167
G01 X80.2640 Y54.7424
G01 X80.1655 Y54.7571
G01 X80.1533 Y54.7583
G01 X80.0538 Y54.7631
G01 X79.9557 Y54.7630
G01 X79.8562 Y54.7581
G01 X79.8471 Y54.7571
G01 X79.7486 Y54.7424
G01 X79.6519 Y54.7183
G01 X79.6402 Y54.7148
G01 X79.5464 Y54.6811
G01 X79.4509 Y54.6358
G01 X79.3653 Y54.5848
G01 X79.3551 Y54.5779
G01 X79.2752 Y54.5185
G01 X79.1969 Y54.4475
G01 X79.1259 Y54.3691
G01 X79.0664 Y54.2892
G01 X79.0596 Y54.2790
G01 X79.0076 Y54.1918
G01 X78.1674 Y54.1918
G01 X77.3116 Y55.0474
G01 X77.2839 Y55.0725
G01 X77.2744 Y55.0803
G01 X77.2393 Y55.1061
G01 X77.2021 Y55.1286
G01 X77.1912 Y55.1344
G01 X77.1518 Y55.1529
G01 X77.1080 Y55.1687
G01 X77.0991 Y55.1712
G01 X77.0628 Y55.1803
G01 X77.0508 Y55.1827
G01 X77.0077 Y55.1890
G01 X76.9581 Y55.1914
G01 X75.0338 Y55.1914
G01 X75.0254 Y55.2041
G01 X74.9749 Y55.2720
G01 X74.9139 Y55.3393
G01 X74.8467 Y55.4002
G01 X74.7788 Y55.4508
G01 X74.7661 Y55.4591
G01 X74.7660 Y57.4680
G01 X74.7641 Y57.5084
G01 X74.7629 Y57.5206
G01 X74.7563 Y57.5637
G01 X74.7459 Y57.6059
G01 X74.7423 Y57.6177
G01 X74.7275 Y57.6586
G01 X74.7063 Y57.7035
G01 X74.6840 Y57.7409
G01 X74.6772 Y57.7511
G01 X74.6512 Y57.7860
G01 X74.6178 Y57.8228
G01 X72.5239 Y59.9167
G01 X72.5336 Y59.9449
G01 X72.5590 Y60.0461
G01 X72.5606 Y60.0551
G01 X72.5755 Y60.1552
G01 X72.5763 Y60.1644
G01 X72.5812 Y60.2686
G01 X72.5758 Y60.3788
G01 X72.5596 Y60.4880
G01 X72.5328 Y60.5951
G01 X72.4956 Y60.6991
G01 X72.4511 Y60.7934
G01 X72.4454 Y60.8042
G01 X72.3916 Y60.8936
G01 X72.3296 Y60.9774
G01 X72.3218 Y60.9869
G01 X72.2559 Y61.0596
G01 X72.2473 Y61.0683
G01 X72.1699 Y61.1382
G01 X72.0862 Y61.2004
G01 X72.0760 Y61.2072
G01 X71.9865 Y61.2607
G01 X71.8867 Y61.3079
G01 X71.7828 Y61.3451
G01 X71.6817 Y61.3706
G01 X71.6727 Y61.3725
G01 X71.5665 Y61.3881
G01 X71.4623 Y61.3934
G01 X71.4501 Y61.3934
G01 X71.3521 Y61.3886
G01 X71.3399 Y61.3874
G01 X71.2367 Y61.3719
G01 X71.1296 Y61.3451
G01 X71.0257 Y61.3079
G01 X70.9286 Y61.2621
G01 X70.9206 Y61.2577
G01 X70.8364 Y61.2072
G01 X70.8262 Y61.2004
G01 X70.7425 Y61.1382
G01 X70.6607 Y61.0641
G01 X70.5866 Y60.9823
G01 X70.5225 Y60.8961
G01 X70.5175 Y60.8884
G01 X70.4655 Y60.8016
G01 X70.4525 Y60.7748
G01 X68.2386 Y60.7748
G01 X66.9325 Y62.0808
G01 X66.9003 Y62.1102
G01 X66.8908 Y62.1180
G01 X66.8608 Y62.1403
G01 X66.8506 Y62.1471
G01 X66.8132 Y62.1693
G01 X66.7683 Y62.1906
G01 X66.7215 Y62.2073
G01 X66.6793 Y62.2180
G01 X66.6673 Y62.2204
G01 X66.6303 Y62.2259
G01 X66.6211 Y62.2269
G01 X66.5746 Y62.2291
G01 X49.8915 Y62.2291
G01 X47.0397 Y65.0809
G01 X47.0051 Y65.1121
G01 X46.9652 Y65.1417
G01 X46.9226 Y65.1672
G01 X46.8833 Y65.1860
G01 X46.8719 Y65.1907
G01 X46.8367 Y65.2033
G01 X46.8250 Y65.2068
G01 X46.7827 Y65.2173
G01 X46.7396 Y65.2238
G01 X46.7305 Y65.2248
G01 X46.6839 Y65.2270
G01 X21.3894 Y65.2270
G01 X21.3398 Y65.2246
G01 X21.2967 Y65.2183
G01 X21.2847 Y65.2159
G01 X21.2425 Y65.2052
G01 X21.2015 Y65.1907
G01 X21.1901 Y65.1860
G01 X21.1535 Y65.1687
G01 X21.1455 Y65.1642
G01 X21.1134 Y65.1450
G01 X21.1032 Y65.1382
G01 X21.0683 Y65.1121
G01 X21.0315 Y65.0787
G01 X17.2011 Y61.2483
G01 X17.1677 Y61.2115
G01 X17.1417 Y61.1766
G01 X17.1348 Y61.1664
G01 X17.1126 Y61.1290
G01 X17.0938 Y61.0897
G01 X17.0891 Y61.0784
G01 X17.0746 Y61.0373
G01 X17.0639 Y60.9951
G01 X17.0615 Y60.9831
G01 X17.0552 Y60.9400
G01 X17.0529 Y60.8935
G01 X17.0528 Y58.4177
G01 X14.6259 Y58.4177
G01 X14.5793 Y58.4153
G01 X14.5362 Y58.4090
G01 X14.5242 Y58.4066
G01 X14.4820 Y58.3959
G01 X14.4410 Y58.3814
G01 X14.4296 Y58.3767
G01 X14.3903 Y58.3579
G01 X14.3477 Y58.3324
G01 X14.3078 Y58.3028
G01 X14.2710 Y58.2694
G01 X9.8235 Y53.8219
G01 X9.7942 Y53.7898
G01 X9.7864 Y53.7803
G01 X9.7606 Y53.7452
G01 X9.7380 Y53.7079
G01 X9.7323 Y53.6971
G01 X9.7138 Y53.6577
G01 X9.6990 Y53.6168
G01 X9.6962 Y53.6080
G01 X9.6850 Y53.5627
G01 X9.6784 Y53.5197
G01 X9.6772 Y53.5075
G01 X9.6753 Y53.4671
G01 X9.6752 Y52.2949
G01 X9.6449 Y52.2767
G01 X9.6372 Y52.2717
G01 X9.5653 Y52.2183
G01 X9.5583 Y52.2124
G01 X9.4964 Y52.1564
G01 X9.4899 Y52.1500
G01 X9.4318 Y52.0859
G01 X9.4240 Y52.0764
G01 X9.3708 Y52.0044
G01 X9.3230 Y51.9250
G01 X9.3188 Y51.9169
G01 X9.2807 Y51.8358
G01 X9.2503 Y51.7516
G01 X9.2468 Y51.7398
G01 X9.2252 Y51.6529
G01 X9.2119 Y51.5644
G01 X9.2107 Y51.5522
G01 X9.2064 Y51.4627
G01 X9.2107 Y51.3733
G01 X9.2119 Y51.3611
G01 X9.2252 Y51.2725
G01 X9.2468 Y51.1856
G01 X9.2503 Y51.1739
G01 X9.2807 Y51.0896
G01 X9.3188 Y51.0086
G01 X9.3230 Y51.0004
G01 X9.3708 Y50.9211
G01 X9.4240 Y50.8490
G01 X9.4318 Y50.8396
G01 X9.4899 Y50.7755
G01 X9.4964 Y50.7691
G01 X9.5583 Y50.7131
G01 X9.5653 Y50.7071
G01 X9.6372 Y50.6538
G01 X9.6449 Y50.6488
G01 X9.6752 Y50.6306
G01 X9.6752 Y48.4177
G01 X9.6449 Y48.3996
G01 X9.6372 Y48.3945
G01 X9.5653 Y48.3412
G01 X9.5583 Y48.3353
G01 X9.4964 Y48.2793
G01 X9.4899 Y48.2728
G01 X9.4318 Y48.2088
G01 X9.4240 Y48.1993
G01 X9.3708 Y48.1273
G01 X9.3230 Y48.0479
G01 X9.3188 Y48.0397
G01 X9.2807 Y47.9587
G01 X9.2503 Y47.8744
G01 X9.2468 Y47.8627
G01 X9.2252 Y47.7758
G01 X9.2119 Y47.6872
G01 X9.2107 Y47.6750
G01 X9.2064 Y47.5856
G01 X9.2107 Y47.4961
G01 X9.2119 Y47.4839
G01 X9.2252 Y47.3954
G01 X9.2468 Y47.3085
G01 X9.2503 Y47.2967
G01 X9.2807 Y47.2125
G01 X9.3188 Y47.1315
G01 X9.3230 Y47.1233
G01 X9.3708 Y47.0439
G01 X9.4240 Y46.9719
G01 X9.4318 Y46.9624
G01 X9.4899 Y46.8984
G01 X9.4964 Y46.8919
G01 X9.5583 Y46.8359
G01 X9.5653 Y46.8300
G01 X9.6372 Y46.7766
G01 X9.6449 Y46.7716
G01 X9.6752 Y46.7535
G01 X9.6752 Y44.5406
G01 X9.6449 Y44.5224
G01 X9.6372 Y44.5174
G01 X9.5653 Y44.4641
G01 X9.5583 Y44.4581
G01 X9.4964 Y44.4021
G01 X9.4899 Y44.3957
G01 X9.4318 Y44.3316
G01 X9.4240 Y44.3222
G01 X9.3708 Y44.2501
G01 X9.3230 Y44.1708
G01 X9.3188 Y44.1626
G01 X9.2807 Y44.0816
G01 X9.2503 Y43.9973
G01 X9.2468 Y43.9856
G01 X9.2252 Y43.8987
G01 X9.2119 Y43.8101
G01 X9.2107 Y43.7979
G01 X9.2064 Y43.7085
G01 X9.2107 Y43.6190
G01 X9.2119 Y43.6068
G01 X9.2252 Y43.5182
G01 X9.2468 Y43.4313
G01 X9.2503 Y43.4196
G01 X9.2807 Y43.3353
G01 X9.3188 Y43.2543
G01 X9.3230 Y43.2462
G01 X9.3708 Y43.1668
G01 X9.4240 Y43.0948
G01 X9.4318 Y43.0853
G01 X9.4899 Y43.0212
G01 X9.4964 Y43.0148
G01 X9.5583 Y42.9588
G01 X9.5653 Y42.9529
G01 X9.6372 Y42.8995
G01 X9.6449 Y42.8945
G01 X9.6752 Y42.8763
G01 X9.6752 Y40.6634
G01 X9.6449 Y40.6453
G01 X9.6372 Y40.6403
G01 X9.5653 Y40.5869
G01 X9.5583 Y40.5810
G01 X9.4964 Y40.5250
G01 X9.4899 Y40.5185
G01 X9.4318 Y40.4545
G01 X9.4240 Y40.4450
G01 X9.3708 Y40.3730
G01 X9.3230 Y40.2936
G01 X9.3188 Y40.2854
G01 X9.2807 Y40.2044
G01 X9.2503 Y40.1202
G01 X9.2468 Y40.1084
G01 X9.2252 Y40.0215
G01 X9.2119 Y39.9330
G01 X9.2107 Y39.9208
G01 X9.2064 Y39.8313
G01 X9.2107 Y39.7419
G01 X9.2119 Y39.7297
G01 X9.2252 Y39.6411
G01 X9.2468 Y39.5542
G01 X9.2503 Y39.5425
G01 X9.2807 Y39.4582
G01 X9.3188 Y39.3772
G01 X9.3230 Y39.3690
G01 X9.3708 Y39.2896
G01 X9.4240 Y39.2176
G01 X9.4318 Y39.2081
G01 X9.4899 Y39.1441
G01 X9.4964 Y39.1377
G01 X9.5583 Y39.0816
G01 X9.5653 Y39.0757
G01 X9.6372 Y39.0224
G01 X9.6449 Y39.0173
G01 X9.6752 Y38.9992
G01 X9.6752 Y36.7863
G01 X9.6449 Y36.7681
G01 X9.6372 Y36.7631
G01 X9.5653 Y36.7098
G01 X9.5583 Y36.7039
G01 X9.4964 Y36.6478
G01 X9.4899 Y36.6414
G01 X9.4277 Y36.5727
G01 X9.3743 Y36.5009
G01 X9.3675 Y36.4907
G01 X9.3230 Y36.4165
G01 X9.3188 Y36.4083
G01 X9.2807 Y36.3273
G01 X9.2503 Y36.2430
G01 X9.2468 Y36.2313
G01 X9.2252 Y36.1444
G01 X9.2119 Y36.0558
G01 X9.2107 Y36.0436
G01 X9.2064 Y35.9542
G01 X9.2107 Y35.8647
G01 X9.2119 Y35.8525
G01 X9.2252 Y35.7640
G01 X9.2468 Y35.6771
G01 X9.2503 Y35.6653
G01 X9.2807 Y35.5811
G01 X9.3188 Y35.5000
G01 X9.3230 Y35.4919
G01 X9.3675 Y35.4177
G01 X9.3743 Y35.4075
G01 X9.4277 Y35.3356
G01 X9.4899 Y35.2669
G01 X9.4964 Y35.2605
G01 X9.5583 Y35.2045
G01 X9.5653 Y35.1986
G01 X9.6372 Y35.1452
G01 X9.6449 Y35.1402
G01 X9.6752 Y35.1220
G01 X9.6752 Y32.9950
G01 X7.1776 Y30.4974
G01 X7.1464 Y30.4627
G01 X7.1203 Y30.4279
G01 X7.1135 Y30.4177
G01 X7.0913 Y30.3802
G01 X7.0700 Y30.3353
G01 X7.0552 Y30.2944
G01 X7.0517 Y30.2827
G01 X7.0426 Y30.2464
G01 X7.0402 Y30.2343
G01 X7.0339 Y30.1912
G01 X7.0315 Y30.1416
G01 X7.0315 Y16.1362
G00 Z2.0000
G00 X8.3057 Y16.5305
G01 F60.00
G01 Z-0.0500
G01 F120.00
G01 X8.3282 Y16.4537
G01 X8.3337 Y16.4394
G01 X8.3394 Y16.4285
G01 X8.3461 Y16.4183
G01 X8.3668 Y16.3924
G01 X8.3757 Y16.3825
G01 X15.9614 Y8.7968
G01 X15.9725 Y8.7869
G01 X15.9847 Y8.7784
G01 X16.0522 Y8.7414
G01 X16.0604 Y8.7373
G01 X16.0689 Y8.7338
G01 X16.0777 Y8.7310
G01 X16.0896 Y8.7282
G01 X16.0987 Y8.7268
G01 X16.1255 Y8.7240
G01 X16.1389 Y8.7232
G01 X53.8689 Y8.7232
G01 X53.8778 Y8.7236
G01 X53.8867 Y8.7245
G01 X53.9012 Y8.7275
G01 X53.9751 Y8.7492
G01 X53.9838 Y8.7523
G01 X53.9949 Y8.7575
G01 X54.0029 Y8.7621
G01 X54.0130 Y8.7690
G01 X54.0390 Y8.7900
G01 X54.0463 Y8.7968
G01 X55.6475 Y10.3982
G01 X55.6551 Y10.4073
G01 X55.6633 Y10.4197
G01 X55.6988 Y10.4846
G01 X55.7028 Y10.4928
G01 X55.7064 Y10.5015
G01 X55.7109 Y10.5164
G01 X55.7134 Y10.5319
G01 X55.7140 Y10.5413
G01 X55.7139 Y10.5505
G01 X55.7084 Y10.6274
G01 X55.7066 Y10.6397
G01 X55.7036 Y10.6519
G01 X55.6981 Y10.6665
G01 X55.6908 Y10.6803
G01 X55.6584 Y10.7308
G01 X55.6524 Y10.7389
G01 X55.6458 Y10.7464
G01 X55.1257 Y11.2665
G01 X55.1204 Y11.2716
G01 X55.1035 Y11.2860
G01 X55.0954 Y11.2924
G01 X55.0583 Y11.3335
G01 X55.0409 Y11.3514
G01 X55.0249 Y11.3706
G01 X54.9879 Y11.4118
G01 X54.9824 Y11.4205
G01 X54.9698 Y11.4388
G01 X54.9651 Y11.4450
G01 X54.9392 Y11.4957
G01 X54.9075 Y11.5510
G01 X54.9040 Y11.5606
G01 X54.8955 Y11.5811
G01 X54.8921 Y11.5881
G01 X54.8755 Y11.6495
G01 X54.8579 Y11.7038
G01 X54.8568 Y11.7115
G01 X54.8528 Y11.7334
G01 X54.8505 Y11.7434
G01 X54.8476 Y11.7987
G01 X54.8453 Y11.8236
G01 X54.8450 Y11.8485
G01 X54.8421 Y11.9039
G01 X54.8434 Y11.9140
G01 X54.8451 Y11.9362
G01 X54.8453 Y11.9435
G01 X54.8453 Y12.8663
G01 X54.8444 Y12.8811
G01 X54.8430 Y12.8899
G01 X54.8410 Y12.8986
G01 X54.8193 Y12.9726
G01 X54.8137 Y12.9869
G01 X54.8064 Y13.0004
G01 X54.7995 Y13.0105
G01 X54.7761 Y13.0392
G01 X54.7052 Y13.1099
G01 X54.6960 Y13.1174
G01 X54.6836 Y13.1256
G01 X54.6160 Y13.1624
G01 X54.6077 Y13.1663
G01 X54.5989 Y13.1696
G01 X54.5899 Y13.1723
G01 X54.5807 Y13.1742
G01 X54.5683 Y13.1758
G01 X54.5528 Y13.1760
G01 X54.4731 Y13.1701
G01 X54.4607 Y13.1679
G01 X54.4517 Y13.1655
G01 X54.4399 Y13.1613
G01 X54.4286 Y13.1559
G01 X54.4154 Y13.1477
G01 X54.3536 Y13.1012
G01 X54.3420 Y13.0907
G01 X54.3358 Y13.0839
G01 X54.3301 Y13.0766
G01 X54.3217 Y13.0632
G01 X54.3047 Y13.0321
G01 X54.2995 Y13.0215
G01 X54.2592 Y12.9143
G01 X54.1934 Y12.8266
G01 X54.1056 Y12.7608
G01 X54.0009 Y12.7215
G01 X53.9611 Y12.7172
G01 X53.4488 Y12.7172
G01 X53.4488 Y12.9752
G01 X53.9198 Y12.9752
G01 X53.9290 Y12.9755
G01 X53.9381 Y12.9765
G01 X53.9472 Y12.9782
G01 X53.9561 Y12.9805
G01 X53.9648 Y12.9835
G01 X53.9732 Y12.9872
G01 X53.9814 Y12.9914
G01 X53.9892 Y12.9962
G01 X54.0014 Y13.0055
G01 X54.0082 Y13.0118
G01 X54.0144 Y13.0185
G01 X54.0202 Y13.0257
G01 X54.0254 Y13.0333
G01 X54.0300 Y13.0412
G01 X54.0341 Y13.0495
G01 X54.0375 Y13.0581
G01 X54.0403 Y13.0668
G01 X54.0434 Y13.0818
G01 X54.0445 Y13.0910
G01 X54.0448 Y13.1002
G01 X54.0448 Y14.8002
G01 X54.0442 Y14.8124
G01 X54.0430 Y14.8215
G01 X54.0403 Y14.8335
G01 X54.0375 Y14.8423
G01 X54.0328 Y14.8536
G01 X54.0286 Y14.8618
G01 X54.0237 Y14.8696
G01 X54.0183 Y14.8771
G01 X54.0103 Y14.8864
G01 X53.9991 Y14.8968
G01 X53.9892 Y14.9041
G01 X53.9760 Y14.9118
G01 X53.9648 Y14.9168
G01 X53.9502 Y14.9214
G01 X53.9381 Y14.9238
G01 X53.9229 Y14.9251
G01 X52.2198 Y14.9252
G01 X52.2045 Y14.9242
G01 X52.1894 Y14.9214
G01 X52.1806 Y14.9189
G01 X52.1720 Y14.9157
G01 X52.1636 Y14.9118
G01 X52.1555 Y14.9074
G01 X52.1478 Y14.9024
G01 X52.1405 Y14.8968
G01 X52.1336 Y14.8907
G01 X52.1272 Y14.8841
G01 X52.1212 Y14.8771
G01 X52.1159 Y14.8696
G01 X52.1110 Y14.8618
G01 X52.1068 Y14.8536
G01 X52.1032 Y14.8452
G01 X52.1002 Y14.8365
G01 X52.0978 Y14.8276
G01 X52.0961 Y14.8185
G01 X52.0951 Y14.8094
G01 X52.0948 Y14.8002
G01 X52.0948 Y14.3292
G01 X51.8368 Y14.3292
G01 X51.8368 Y14.8414
G01 X51.8411 Y14.8812
G01 X51.8804 Y14.9860
G01 X51.9462 Y15.0738
G01 X51.9578 Y15.0847
G01 X51.9638 Y15.0914
G01 X51.9703 Y15.0997
G01 X52.0117 Y15.1553
G01 X52.0184 Y15.1657
G01 X52.0227 Y15.1740
G01 X52.0264 Y15.1827
G01 X52.0295 Y15.1916
G01 X52.0319 Y15.2006
G01 X52.0336 Y15.2099
G01 X52.0345 Y15.2189
G01 X52.0396 Y15.2897
G01 X52.0399 Y15.2988
G01 X52.0389 Y15.3144
G01 X52.0367 Y15.3267
G01 X52.0332 Y15.3388
G01 X52.0286 Y15.3504
G01 X52.0245 Y15.3585
G01 X51.9890 Y15.4234
G01 X51.9823 Y15.4338
G01 X51.9745 Y15.4436
G01 X51.9680 Y15.4504
G01 X51.9611 Y15.4567
G01 X51.9536 Y15.4625
G01 X51.9432 Y15.4692
G01 X51.8729 Y15.5074
G01 X51.8587 Y15.5132
G01 X51.8439 Y15.5172
G01 X51.8348 Y15.5188
G01 X51.8051 Y15.5220
G01 X51.7918 Y15.5227
G01 X48.3449 Y15.5227
G01 X48.3360 Y15.5224
G01 X48.3271 Y15.5214
G01 X48.3126 Y15.5185
G01 X48.2386 Y15.4968
G01 X48.2300 Y15.4936
G01 X48.2188 Y15.4885
G01 X48.2109 Y15.4839
G01 X48.2008 Y15.4769
G01 X48.1748 Y15.4560
G01 X48.1674 Y15.4492
G01 X44.4257 Y11.7074
G01 X44.4206 Y11.7021
G01 X44.4062 Y11.6852
G01 X44.3998 Y11.6771
G01 X44.3586 Y11.6400
G01 X44.3408 Y11.6226
G01 X44.3216 Y11.6067
G01 X44.2804 Y11.5696
G01 X44.2717 Y11.5641
G01 X44.2534 Y11.5515
G01 X44.2472 Y11.5468
G01 X44.1964 Y11.5209
G01 X44.1412 Y11.4892
G01 X44.1316 Y11.4857
G01 X44.1111 Y11.4772
G01 X44.1040 Y11.4738
G01 X44.0426 Y11.4572
G01 X43.9884 Y11.4396
G01 X43.9807 Y11.4386
G01 X43.9588 Y11.4345
G01 X43.9488 Y11.4323
G01 X43.8935 Y11.4293
G01 X43.8686 Y11.4270
G01 X43.8436 Y11.4267
G01 X43.7883 Y11.4238
G01 X43.7781 Y11.4251
G01 X43.7560 Y11.4268
G01 X43.7486 Y11.4270
G01 X42.7486 Y11.4270
G01 X42.7397 Y11.4267
G01 X42.7308 Y11.4257
G01 X42.7163 Y11.4227
G01 X42.6425 Y11.4011
G01 X42.6281 Y11.3955
G01 X42.6143 Y11.3880
G01 X42.6044 Y11.3811
G01 X42.5816 Y11.3634
G01 X42.4849 Y11.2754
G01 X42.3117 Y11.1667
G01 X42.1219 Y11.0905
G01 X41.9198 Y11.0486
G01 X41.8750 Y11.0460
G01 X40.9615 Y11.0460
G01 X40.8098 Y11.0595
G01 X40.6126 Y11.1135
G01 X40.4280 Y11.2015
G01 X40.2620 Y11.3209
G01 X40.1617 Y11.4243
G01 X40.1197 Y11.4677
G01 X40.0056 Y11.6374
G01 X39.9234 Y11.8247
G01 X39.8801 Y12.0051
G01 X39.8757 Y12.0235
G01 X39.8639 Y12.2276
G01 X39.8885 Y12.4306
G01 X39.9486 Y12.6261
G01 X40.0424 Y12.8078
G01 X40.1669 Y12.9700
G01 X40.3181 Y13.1076
G01 X40.4913 Y13.2163
G01 X40.5295 Y13.2318
G01 X40.5375 Y13.2358
G01 X40.5451 Y13.2403
G01 X40.5548 Y13.2473
G01 X40.6106 Y13.2912
G01 X40.6198 Y13.2992
G01 X40.6303 Y13.3108
G01 X40.6377 Y13.3209
G01 X40.6440 Y13.3317
G01 X40.6503 Y13.3458
G01 X40.6745 Y13.4158
G01 X40.6771 Y13.4245
G01 X40.6792 Y13.4336
G01 X40.6805 Y13.4429
G01 X40.6812 Y13.4523
G01 X40.6812 Y13.4617
G01 X40.6804 Y13.4710
G01 X40.6784 Y13.4832
G01 X40.6609 Y13.5551
G01 X40.6574 Y13.5668
G01 X40.6528 Y13.5781
G01 X40.6471 Y13.5889
G01 X40.6386 Y13.6016
G01 X40.6307 Y13.6109
G01 X40.6242 Y13.6173
G01 X40.5694 Y13.6679
G01 X40.5623 Y13.6740
G01 X40.5547 Y13.6795
G01 X40.5468 Y13.6845
G01 X40.5385 Y13.6889
G01 X40.4280 Y13.7415
G01 X40.2620 Y13.8609
G01 X40.1197 Y14.0077
G01 X40.0056 Y14.1774
G01 X39.9234 Y14.3647
G01 X39.8757 Y14.5635
G01 X39.8639 Y14.7676
G01 X39.8885 Y14.9706
G01 X39.9486 Y15.1661
G01 X40.0424 Y15.3478
G01 X40.1669 Y15.5100
G01 X40.3181 Y15.6476
G01 X40.4913 Y15.7563
G01 X40.5301 Y15.7720
G01 X40.5381 Y15.7760
G01 X40.5458 Y15.7806
G01 X40.5554 Y15.7875
G01 X40.6112 Y15.8315
G01 X40.6204 Y15.8395
G01 X40.6310 Y15.8510
G01 X40.6384 Y15.8611
G01 X40.6447 Y15.8719
G01 X40.6499 Y15.8833
G01 X40.6751 Y15.9560
G01 X40.6777 Y15.9647
G01 X40.6808 Y15.9801
G01 X40.6817 Y15.9894
G01 X40.6819 Y15.9988
G01 X40.6811 Y16.0113
G01 X40.6790 Y16.0235
G01 X40.6615 Y16.0954
G01 X40.6580 Y16.1071
G01 X40.6521 Y16.1211
G01 X40.6445 Y16.1343
G01 X40.6354 Y16.1466
G01 X40.6271 Y16.1555
G01 X40.5677 Y16.2102
G01 X40.5554 Y16.2198
G01 X40.5474 Y16.2248
G01 X40.5391 Y16.2291
G01 X40.4283 Y16.2820
G01 X40.2623 Y16.4012
G01 X40.1201 Y16.5480
G01 X40.0061 Y16.7176
G01 X39.9293 Y16.8925
G01 X40.2126 Y16.8925
G01 X40.2285 Y16.8589
G01 X40.2327 Y16.8507
G01 X40.2743 Y16.7813
G01 X40.2795 Y16.7737
G01 X40.3259 Y16.7112
G01 X40.3318 Y16.7041
G01 X40.3863 Y16.6443
G01 X40.4484 Y16.5878
G01 X40.4556 Y16.5821
G01 X40.5207 Y16.5340
G01 X40.5954 Y16.4892
G01 X40.6741 Y16.4520
G01 X40.7502 Y16.4246
G01 X40.7590 Y16.4218
G01 X40.8345 Y16.4029
G01 X40.8465 Y16.4005
G01 X40.9266 Y16.3888
G01 X41.0104 Y16.3845
G01 X41.7895 Y16.3845
G01 X41.8703 Y16.3883
G01 X41.8825 Y16.3895
G01 X41.9625 Y16.4015
G01 X42.0470 Y16.4227
G01 X42.1232 Y16.4498
G01 X42.1345 Y16.4545
G01 X42.2076 Y16.4892
G01 X42.2797 Y16.5323
G01 X42.2873 Y16.5375
G01 X42.3474 Y16.5821
G01 X42.3569 Y16.5898
G01 X42.4167 Y16.6443
G01 X42.4732 Y16.7064
G01 X42.4789 Y16.7136
G01 X42.5235 Y16.7737
G01 X42.5287 Y16.7813
G01 X42.5703 Y16.8507
G01 X42.5745 Y16.8589
G01 X42.5904 Y16.8925
G01 X42.8710 Y16.8925
G01 X42.8539 Y16.8371
G01 X42.7602 Y16.6555
G01 X42.6358 Y16.4934
G01 X42.4846 Y16.3558
G01 X42.3114 Y16.2472
G01 X42.2729 Y16.2315
G01 X42.2649 Y16.2275
G01 X42.2573 Y16.2230
G01 X42.2476 Y16.2160
G01 X42.1918 Y16.1721
G01 X42.1849 Y16.1662
G01 X42.1761 Y16.1573
G01 X42.1682 Y16.1476
G01 X42.1614 Y16.1371
G01 X42.1543 Y16.1231
G01 X42.1511 Y16.1146
G01 X42.1261 Y16.0418
G01 X42.1227 Y16.0266
G01 X42.1213 Y16.0141
G01 X42.1211 Y16.0047
G01 X42.1216 Y15.9954
G01 X42.1228 Y15.9861
G01 X42.1247 Y15.9772
G01 X42.1431 Y15.9023
G01 X42.1483 Y15.8880
G01 X42.1537 Y15.8770
G01 X42.1585 Y15.8692
G01 X42.1638 Y15.8617
G01 X42.1696 Y15.8547
G01 X42.1759 Y15.8481
G01 X42.2353 Y15.7933
G01 X42.2426 Y15.7874
G01 X42.2503 Y15.7820
G01 X42.2639 Y15.7744
G01 X42.3750 Y15.7215
G01 X42.5367 Y15.6053
G01 X42.5495 Y15.5976
G01 X42.5631 Y15.5916
G01 X42.6385 Y15.5652
G01 X42.6537 Y15.5617
G01 X42.6693 Y15.5601
G01 X42.6850 Y15.5604
G01 X42.6974 Y15.5621
G01 X42.7786 Y15.5815
G01 X42.7872 Y15.5844
G01 X42.7955 Y15.5879
G01 X42.8036 Y15.5919
G01 X42.8114 Y15.5966
G01 X42.8192 Y15.6021
G01 X42.8479 Y15.6241
G01 X42.8583 Y15.6333
G01 X45.5130 Y18.2881
G01 X45.5180 Y18.2934
G01 X45.5325 Y18.3103
G01 X45.5388 Y18.3184
G01 X45.5800 Y18.3555
G01 X45.5978 Y18.3729
G01 X45.6171 Y18.3888
G01 X45.6583 Y18.4259
G01 X45.6669 Y18.4314
G01 X45.6852 Y18.4440
G01 X45.6914 Y18.4487
G01 X45.7422 Y18.4746
G01 X45.7974 Y18.5063
G01 X45.8071 Y18.5098
G01 X45.8276 Y18.5183
G01 X45.8346 Y18.5217
G01 X45.8976 Y18.5388
G01 X45.9545 Y18.5573
G01 X45.9683 Y18.5627
G01 X45.9763 Y18.5667
G01 X45.9839 Y18.5713
G01 X46.0499 Y18.6165
G01 X46.0594 Y18.6246
G01 X46.0702 Y18.6359
G01 X46.0778 Y18.6459
G01 X46.0858 Y18.6593
G01 X46.0896 Y18.6676
G01 X46.1184 Y18.7357
G01 X46.1232 Y18.7505
G01 X46.1257 Y18.7627
G01 X46.1267 Y18.7721
G01 X46.1271 Y18.7814
G01 X46.1261 Y18.7971
G01 X46.1120 Y18.8787
G01 X46.1077 Y18.8938
G01 X46.1015 Y18.9081
G01 X46.0935 Y18.9216
G01 X46.0860 Y18.9316
G01 X46.0301 Y18.9926
G01 X46.0186 Y19.0027
G01 X46.0112 Y19.0080
G01 X46.0034 Y19.0128
G01 X45.9896 Y19.0195
G01 X45.9755 Y19.0243
G01 X45.9077 Y19.0432
G01 X45.8954 Y19.0456
G01 X45.8858 Y19.0467
G01 X45.8769 Y19.0470
G01 X42.7486 Y19.0470
G01 X42.7367 Y19.0464
G01 X42.7279 Y19.0453
G01 X42.7134 Y19.0419
G01 X42.6425 Y19.0211
G01 X42.6281 Y19.0155
G01 X42.6143 Y19.0080
G01 X42.6044 Y19.0011
G01 X42.5816 Y18.9834
G01 X42.4849 Y18.8954
G01 X42.3117 Y18.7867
G01 X42.2729 Y18.7710
G01 X42.2649 Y18.7670
G01 X42.2572 Y18.7624
G01 X42.2476 Y18.7555
G01 X42.1895 Y18.7097
G01 X42.1826 Y18.7035
G01 X42.1761 Y18.6968
G01 X42.1664 Y18.6845
G01 X42.1583 Y18.6711
G01 X42.1520 Y18.6569
G01 X42.1279 Y18.5870
G01 X42.1245 Y18.5753
G01 X42.1222 Y18.5629
G01 X42.1213 Y18.5536
G01 X42.1212 Y18.5411
G01 X42.1219 Y18.5317
G01 X42.1247 Y18.5166
G01 X42.1415 Y18.4476
G01 X42.1460 Y18.4331
G01 X42.1509 Y18.4219
G01 X42.1585 Y18.4087
G01 X42.1676 Y18.3964
G01 X42.1759 Y18.3875
G01 X42.2353 Y18.3328
G01 X42.2476 Y18.3232
G01 X42.2556 Y18.3182
G01 X42.2639 Y18.3139
G01 X42.3747 Y18.2610
G01 X42.5407 Y18.1418
G01 X42.6829 Y17.9950
G01 X42.7969 Y17.8254
G01 X42.8737 Y17.6505
G01 X42.5904 Y17.6505
G01 X42.5745 Y17.6841
G01 X42.5703 Y17.6923
G01 X42.5287 Y17.7617
G01 X42.5235 Y17.7693
G01 X42.4771 Y17.8318
G01 X42.4712 Y17.8389
G01 X42.4167 Y17.8987
G01 X42.3546 Y17.9552
G01 X42.3474 Y17.9609
G01 X42.2823 Y18.0090
G01 X42.2076 Y18.0538
G01 X42.1289 Y18.0910
G01 X42.0528 Y18.1184
G01 X42.0440 Y18.1212
G01 X41.9685 Y18.1401
G01 X41.9565 Y18.1425
G01 X41.8764 Y18.1542
G01 X41.7926 Y18.1585
G01 X41.0135 Y18.1585
G01 X40.9327 Y18.1547
G01 X40.9205 Y18.1535
G01 X40.8405 Y18.1415
G01 X40.7560 Y18.1203
G01 X40.6798 Y18.0932
G01 X40.6685 Y18.0885
G01 X40.5954 Y18.0538
G01 X40.5233 Y18.0107
G01 X40.5157 Y18.0055
G01 X40.4556 Y17.9609
G01 X40.4461 Y17.9532
G01 X40.3863 Y17.8987
G01 X40.3298 Y17.8366
G01 X40.3241 Y17.8294
G01 X40.2795 Y17.7693
G01 X40.2743 Y17.7617
G01 X40.2327 Y17.6923
G01 X40.2285 Y17.6841
G01 X40.2126 Y17.6505
G01 X39.9320 Y17.6505
G01 X39.9491 Y17.7059
G01 X40.0428 Y17.8875
G01 X40.1672 Y18.0496
G01 X40.3184 Y18.1872
G01 X40.4916 Y18.2958
G01 X40.5301 Y18.3115
G01 X40.5381 Y18.3155
G01 X40.5457 Y18.3200
G01 X40.5554 Y18.3270
G01 X40.6112 Y18.3709
G01 X40.6204 Y18.3789
G01 X40.6290 Y18.3881
G01 X40.6383 Y18.4006
G01 X40.6447 Y18.4114
G01 X40.6499 Y18.4228
G01 X40.6751 Y18.4955
G01 X40.6777 Y18.5042
G01 X40.6808 Y18.5195
G01 X40.6817 Y18.5289
G01 X40.6819 Y18.5383
G01 X40.6810 Y18.5507
G01 X40.6790 Y18.5629
G01 X40.6615 Y18.6348
G01 X40.6590 Y18.6436
G01 X40.6547 Y18.6550
G01 X40.6477 Y18.6686
G01 X40.6392 Y18.6813
G01 X40.6313 Y18.6906
G01 X40.6248 Y18.6970
G01 X40.5700 Y18.7476
G01 X40.5629 Y18.7537
G01 X40.5554 Y18.7592
G01 X40.5474 Y18.7642
G01 X40.5391 Y18.7686
G01 X40.4280 Y18.8215
G01 X40.2620 Y18.9409
G01 X40.1197 Y19.0877
G01 X40.0056 Y19.2574
G01 X39.9234 Y19.4447
G01 X39.8757 Y19.6435
G01 X39.8639 Y19.8476
G01 X39.8885 Y20.0506
G01 X39.9486 Y20.2461
G01 X40.0424 Y20.4278
G01 X40.1669 Y20.5900
G01 X40.3181 Y20.7276
G01 X40.4913 Y20.8363
G01 X40.5295 Y20.8518
G01 X40.5375 Y20.8558
G01 X40.5451 Y20.8603
G01 X40.5548 Y20.8673
G01 X40.6106 Y20.9112
G01 X40.6198 Y20.9192
G01 X40.6283 Y20.9284
G01 X40.6377 Y20.9409
G01 X40.6440 Y20.9517
G01 X40.6493 Y20.9631
G01 X40.6745 Y21.0358
G01 X40.6771 Y21.0445
G01 X40.6802 Y21.0598
G01 X40.6811 Y21.0692
G01 X40.6813 Y21.0785
G01 X40.6804 Y21.0910
G01 X40.6784 Y21.1032
G01 X40.6609 Y21.1751
G01 X40.6584 Y21.1839
G01 X40.6541 Y21.1953
G01 X40.6471 Y21.2089
G01 X40.6386 Y21.2216
G01 X40.6307 Y21.2309
G01 X40.6242 Y21.2373
G01 X40.5694 Y21.2879
G01 X40.5623 Y21.2940
G01 X40.5547 Y21.2995
G01 X40.5468 Y21.3045
G01 X40.5385 Y21.3089
G01 X40.4280 Y21.3615
G01 X40.2620 Y21.4809
G01 X40.1197 Y21.6277
G01 X40.0056 Y21.7974
G01 X39.9234 Y21.9847
G01 X39.8757 Y22.1835
G01 X39.8639 Y22.3876
G01 X39.8885 Y22.5906
G01 X39.9486 Y22.7861
G01 X40.0424 Y22.9678
G01 X40.1669 Y23.1300
G01 X40.3181 Y23.2676
G01 X40.4913 Y23.3763
G01 X40.5295 Y23.3918
G01 X40.5375 Y23.3958
G01 X40.5451 Y23.4003
G01 X40.5548 Y23.4073
G01 X40.6106 Y23.4512
G01 X40.6198 Y23.4592
G01 X40.6283 Y23.4684
G01 X40.6377 Y23.4809
G01 X40.6440 Y23.4917
