(G-CODE GENERATED BY FLATCAM v8.994 - www.flatcam.org - Version Date: 2020/11/7)

(Name: new_geo_cnc)
(Type: G-code from Geometry)
(Units: MM)

(Created on Monday, 26 September 2022 at 12:26)

(This preprocessor is the default preprocessor used by FlatCAM.)
(It is made to work with MACH3 compatible motion controllers.)

(TOOL DIAMETER: 3.175 mm)
(Feedrate_XY: 120.0 mm/min)
(Feedrate_Z: 60.0 mm/min)
(Feedrate rapids 1500.0 mm/min)

(Z_Cut: -1.8 mm)
(DepthPerCut: 0.9 mm <=>2 passes)
(Z_Move: 2.0 mm)
(Z Start: None mm)
(Z End: 15.0 mm)
(X,Y End: None mm)
(Steps per circle: 64)
(Preprocessor Geometry: default)

(X range:   -2.0000 ...   93.0000  mm)
(Y range:   -2.0000 ...   72.0000  mm)

(Spindle Speed: 1000.0 RPM)
G21
G90
G94

G01 F120.00

M5
G00 Z15.0000
G00 X0.0000 Y0.0000
T1
M6    
(MSG, Change to Tool Dia = 3.1750)
M0
G00 Z15.0000

M03 S1000.0
G01 F120.00
G00 X-2.0000 Y72.0000
G01 F60.00
G01 Z-0.9000
G01 F120.00
G01 X-2.0000 Y-2.0000
G01 X93.0000 Y-2.0000
G01 X93.0000 Y72.0000
G01 X-2.0000 Y72.0000
G00 X-2.0000 Y72.0000
G01 F60.00
G01 Z-1.8000
G01 F120.00
G01 X-2.0000 Y-2.0000
G01 X93.0000 Y-2.0000
G01 X93.0000 Y72.0000
G01 X-2.0000 Y72.0000
G00 Z2.0000
M05
G00 Z2.0000
G00 Z15.00


